(.../eagle/ulp/pcb-gcode/pcb-gcode.ulp)
(Copyright 2005 - 2012 by John Johnson)
(See readme.txt for licensing terms.)
(This file generated from the board:)
(.../climate_control/climate_control.brd)
(Current profile is .../ulp/pcb-gcode/profiles/mach.pp  )
(This file generated 23/04/14 8:39 PM)
(Settings from pcb-machine.h)
(  Tool Size)
(0.1000  )
(Z Axis Settings)
(  High     Up        Down     Drill)
(25.0000 	15.0000 	0.0000  	0.0000  )
(spindle on time = 3.0000)
(milling depth = 0.0000)
(text depth = -0.1270)
(tool change at 12.7000 15.2400 25.4000 )
(feed rate xy = F400   )
(feed rate z  = F1000  )
(Settings from pcb-defaults.h)
(isolate min = 0.0000)
(isolate max = 1.0000)
(isolate step = 0.1000)
(Generated bottom outlines, bottom drill, )
(Unit of measure: mm)
(Metric Mode)
G21
(Absolute Coordinates)
G90
G00 X0.0000  Y0.0000  
M03
G04 P3.000000
G00 Z15.0000 
G00 X-61.6132 Y6.2857  
G01 Z0.0000  F1000  
G01 X-61.6132 Y6.4143  F400   
G01 X-61.5881 Y6.5405  
G01 X-61.5389 Y6.6594  
G01 X-61.4674 Y6.7664  
G01 X-61.3764 Y6.8574  
G01 X-61.2694 Y6.9289  
G01 X-61.1505 Y6.9781  
G01 X-61.0243 Y7.0032  
G01 X-60.8957 Y7.0032  
G01 X-60.7695 Y6.9781  
G01 X-60.6506 Y6.9289  
G01 X-60.5436 Y6.8574  
G01 X-60.4526 Y6.7664  
G01 X-60.4115 Y6.7048  
G01 X-58.7748 Y6.7048  
G01 X-58.7748 Y10.2067 
G01 X-58.7506 Y10.2969 
G01 X-58.7039 Y10.3779 
G01 X-58.6379 Y10.4439 
G01 X-58.5569 Y10.4906 
G01 X-58.4667 Y10.5148 
G01 X-11.1352 Y10.5148 
G01 X-11.1039 Y10.6110 
G01 X-11.0199 Y10.7758 
G01 X-10.9112 Y10.9255 
G01 X-10.7805 Y11.0562 
G01 X-10.6308 Y11.1649 
G01 X-10.4660 Y11.2489 
G01 X-10.2901 Y11.3061 
G01 X-10.1075 Y11.3350 
G01 X-7.6725 Y11.3350 
G01 X-7.4899 Y11.3061 
G01 X-7.3140 Y11.2489 
G01 X-7.1492 Y11.1649 
G01 X-6.9995 Y11.0562 
G01 X-6.8688 Y10.9255 
G01 X-6.7601 Y10.7758 
G01 X-6.6761 Y10.6110 
G01 X-6.6189 Y10.4351 
G01 X-6.5900 Y10.2525 
G01 X-6.5900 Y10.0675 
G01 X-6.6189 Y9.8849  
G01 X-6.6761 Y9.7090  
G01 X-6.7601 Y9.5442  
G01 X-6.8688 Y9.3945  
G01 X-6.9995 Y9.2638  
G01 X-7.1492 Y9.1551  
G01 X-7.3140 Y9.0711  
G01 X-7.4899 Y9.0139  
G01 X-7.6725 Y8.9850  
G01 X-10.1075 Y8.9850  
G01 X-10.2901 Y9.0139  
G01 X-10.4660 Y9.0711  
G01 X-10.6308 Y9.1551  
G01 X-10.7805 Y9.2638  
G01 X-10.9112 Y9.3945  
G01 X-11.0199 Y9.5442  
G01 X-11.1039 Y9.7090  
G01 X-11.1352 Y9.8052  
G01 X-58.0652 Y9.8052  
G01 X-58.0652 Y6.3033  
G01 X-58.0894 Y6.2130  
G01 X-58.1361 Y6.1321  
G01 X-58.2021 Y6.0661  
G01 X-58.2831 Y6.0194  
G01 X-58.3733 Y5.9952  
G01 X-60.4115 Y5.9952  
G01 X-60.4526 Y5.9336  
G01 X-60.5436 Y5.8426  
G01 X-60.6506 Y5.7711  
G01 X-60.7695 Y5.7219  
G01 X-60.8957 Y5.6968  
G01 X-61.0243 Y5.6968  
G01 X-61.1505 Y5.7219  
G01 X-61.2694 Y5.7711  
G01 X-61.3764 Y5.8426  
G01 X-61.4674 Y5.9336  
G01 X-61.5389 Y6.0406  
G01 X-61.5881 Y6.1595  
G01 X-61.6132 Y6.2857  
G00 Z15.0000 
G00 X-96.9780 Y11.0020 
G01 Z0.0000  F1000  
G01 X-96.9780 Y9.3180  F400   
G01 X-97.0092 Y9.1611  
G01 X-97.0704 Y9.0134  
G01 X-97.1593 Y8.8804  
G01 X-97.2724 Y8.7673  
G01 X-97.4054 Y8.6784  
G01 X-97.5531 Y8.6172  
G01 X-97.7100 Y8.5860  
G01 X-97.8700 Y8.5860  
G01 X-98.0269 Y8.6172  
G01 X-98.1746 Y8.6784  
G01 X-98.3076 Y8.7673  
G01 X-98.4207 Y8.8804  
G01 X-98.5096 Y9.0134  
G01 X-98.5708 Y9.1611  
G01 X-98.6020 Y9.3180  
G01 X-98.6020 Y11.0020 
G01 X-98.5708 Y11.1589 
G01 X-98.5096 Y11.3066 
G01 X-98.4207 Y11.4396 
G01 X-98.3076 Y11.5527 
G01 X-98.1746 Y11.6416 
G01 X-98.1448 Y25.0452 
G01 X-110.5367 Y25.0452 
G01 X-110.6269 Y25.0694 
G01 X-110.7079 Y25.1161 
G01 X-110.7739 Y25.1821 
G01 X-110.8206 Y25.2630 
G01 X-110.8448 Y25.3533 
G01 X-110.8448 Y46.2718 
G01 X-110.9995 Y46.3691 
G01 X-111.1109 Y46.4805 
G01 X-111.1983 Y46.6114 
G01 X-111.2586 Y46.7569 
G01 X-111.2893 Y46.9113 
G01 X-111.2893 Y47.0687 
G01 X-111.2586 Y47.2231 
G01 X-111.1983 Y47.3686 
G01 X-111.1109 Y47.4995 
G01 X-110.9995 Y47.6109 
G01 X-110.8686 Y47.6983 
G01 X-110.7231 Y47.7586 
G01 X-110.5687 Y47.7893 
G01 X-110.4113 Y47.7893 
G01 X-110.2569 Y47.7586 
G01 X-110.1114 Y47.6983 
G01 X-109.9805 Y47.6109 
G01 X-109.8691 Y47.4995 
G01 X-109.7817 Y47.3686 
G01 X-109.7214 Y47.2231 
G01 X-109.6907 Y47.0687 
G01 X-109.6907 Y46.9113 
G01 X-109.7214 Y46.7569 
G01 X-109.7817 Y46.6114 
G01 X-109.8691 Y46.4805 
G01 X-109.9805 Y46.3691 
G01 X-110.1114 Y46.2817 
G01 X-110.1352 Y25.7548 
G01 X-97.7433 Y25.7548 
G01 X-97.6531 Y25.7306 
G01 X-97.5721 Y25.6839 
G01 X-97.5061 Y25.6179 
G01 X-97.4594 Y25.5369 
G01 X-97.4352 Y25.4467 
G01 X-97.4352 Y11.6539 
G01 X-97.2724 Y11.5527 
G01 X-97.1593 Y11.4396 
G01 X-97.0704 Y11.3066 
G01 X-97.0092 Y11.1589 
G01 X-96.9780 Y11.0020 
G00 Z15.0000 
G00 X-102.0580 Y11.0020 
G01 Z0.0000  F1000  
G01 X-102.0580 Y9.3180  F400   
G01 X-102.0892 Y9.1611  
G01 X-102.1504 Y9.0134  
G01 X-102.2393 Y8.8804  
G01 X-102.3524 Y8.7673  
G01 X-102.4854 Y8.6784  
G01 X-102.6331 Y8.6172  
G01 X-102.7900 Y8.5860  
G01 X-102.9500 Y8.5860  
G01 X-103.1069 Y8.6172  
G01 X-103.2546 Y8.6784  
G01 X-103.3876 Y8.7673  
G01 X-103.5007 Y8.8804  
G01 X-103.5896 Y9.0134  
G01 X-103.6508 Y9.1611  
G01 X-103.6820 Y9.3180  
G01 X-103.6820 Y11.0020 
G01 X-103.6508 Y11.1589 
G01 X-103.5896 Y11.3066 
G01 X-103.5007 Y11.4396 
G01 X-103.3876 Y11.5527 
G01 X-103.2546 Y11.6416 
G01 X-103.2248 Y21.2352 
G01 X-114.3467 Y21.2352 
G01 X-114.4369 Y21.2594 
G01 X-114.5179 Y21.3061 
G01 X-114.5839 Y21.3721 
G01 X-114.6306 Y21.4531 
G01 X-114.6548 Y21.5433 
G01 X-114.6548 Y58.4667 
G01 X-114.6306 Y58.5569 
G01 X-114.5839 Y58.6379 
G01 X-114.5179 Y58.7039 
G01 X-114.4369 Y58.7506 
G01 X-114.3467 Y58.7748 
G01 X-107.9033 Y58.7748 
G01 X-107.8131 Y58.7506 
G01 X-107.7321 Y58.7039 
G01 X-107.6661 Y58.6379 
G01 X-107.6194 Y58.5569 
G01 X-107.5952 Y58.4667 
G01 X-107.5952 Y55.3282 
G01 X-107.4405 Y55.2309 
G01 X-107.3291 Y55.1195 
G01 X-107.2417 Y54.9886 
G01 X-107.1814 Y54.8431 
G01 X-107.1507 Y54.6887 
G01 X-107.1507 Y54.5313 
G01 X-107.1814 Y54.3769 
G01 X-107.2417 Y54.2314 
G01 X-107.3291 Y54.1005 
G01 X-107.4405 Y53.9891 
G01 X-107.5714 Y53.9017 
G01 X-107.7169 Y53.8414 
G01 X-107.8713 Y53.8107 
G01 X-108.0287 Y53.8107 
G01 X-108.1831 Y53.8414 
G01 X-108.3286 Y53.9017 
G01 X-108.4595 Y53.9891 
G01 X-108.5709 Y54.1005 
G01 X-108.6583 Y54.2314 
G01 X-108.7186 Y54.3769 
G01 X-108.7493 Y54.5313 
G01 X-108.7493 Y54.6887 
G01 X-108.7186 Y54.8431 
G01 X-108.6583 Y54.9886 
G01 X-108.5709 Y55.1195 
G01 X-108.4595 Y55.2309 
G01 X-108.3286 Y55.3183 
G01 X-108.3048 Y58.0652 
G01 X-113.9452 Y58.0652 
G01 X-113.9452 Y21.9448 
G01 X-102.8233 Y21.9448 
G01 X-102.7331 Y21.9206 
G01 X-102.6521 Y21.8739 
G01 X-102.5861 Y21.8079 
G01 X-102.5394 Y21.7269 
G01 X-102.5152 Y21.6367 
G01 X-102.5152 Y11.6539 
G01 X-102.3524 Y11.5527 
G01 X-102.2393 Y11.4396 
G01 X-102.1504 Y11.3066 
G01 X-102.0892 Y11.1589 
G01 X-102.0580 Y11.0020 
G00 Z15.0000 
G00 X-107.1380 Y11.0020 
G01 Z0.0000  F1000  
G01 X-107.1380 Y9.3180  F400   
G01 X-107.1692 Y9.1611  
G01 X-107.2304 Y9.0134  
G01 X-107.3193 Y8.8804  
G01 X-107.4324 Y8.7673  
G01 X-107.5654 Y8.6784  
G01 X-107.7131 Y8.6172  
G01 X-107.8700 Y8.5860  
G01 X-108.0300 Y8.5860  
G01 X-108.1869 Y8.6172  
G01 X-108.3346 Y8.6784  
G01 X-108.4676 Y8.7673  
G01 X-108.5807 Y8.8804  
G01 X-108.6696 Y9.0134  
G01 X-108.7308 Y9.1611  
G01 X-108.7620 Y9.3180  
G01 X-108.7620 Y11.0020 
G01 X-108.7308 Y11.1589 
G01 X-108.6696 Y11.3066 
G01 X-108.5807 Y11.4396 
G01 X-108.4676 Y11.5527 
G01 X-108.3346 Y11.6416 
G01 X-108.3048 Y18.6952 
G01 X-116.8867 Y18.6952 
G01 X-116.9769 Y18.7194 
G01 X-117.0579 Y18.7661 
G01 X-117.1239 Y18.8321 
G01 X-117.1706 Y18.9131 
G01 X-117.1948 Y19.0033 
G01 X-117.1948 Y61.0067 
G01 X-117.1706 Y61.0969 
G01 X-117.1239 Y61.1778 
G01 X-117.0579 Y61.2439 
G01 X-116.9769 Y61.2906 
G01 X-116.8867 Y61.3148 
G01 X-102.8233 Y61.3148 
G01 X-102.7331 Y61.2906 
G01 X-102.6521 Y61.2439 
G01 X-102.5861 Y61.1778 
G01 X-102.5394 Y61.0969 
G01 X-102.5152 Y61.0067 
G01 X-102.5152 Y55.3282 
G01 X-102.3605 Y55.2309 
G01 X-102.2491 Y55.1195 
G01 X-102.1617 Y54.9886 
G01 X-102.1014 Y54.8431 
G01 X-102.0707 Y54.6887 
G01 X-102.0707 Y54.5313 
G01 X-102.1014 Y54.3769 
G01 X-102.1617 Y54.2314 
G01 X-102.2491 Y54.1005 
G01 X-102.3605 Y53.9891 
G01 X-102.4914 Y53.9017 
G01 X-102.6369 Y53.8414 
G01 X-102.7913 Y53.8107 
G01 X-102.9487 Y53.8107 
G01 X-103.1031 Y53.8414 
G01 X-103.2486 Y53.9017 
G01 X-103.3795 Y53.9891 
G01 X-103.4909 Y54.1005 
G01 X-103.5783 Y54.2314 
G01 X-103.6386 Y54.3769 
G01 X-103.6693 Y54.5313 
G01 X-103.6693 Y54.6887 
G01 X-103.6386 Y54.8431 
G01 X-103.5783 Y54.9886 
G01 X-103.4909 Y55.1195 
G01 X-103.3795 Y55.2309 
G01 X-103.2486 Y55.3183 
G01 X-103.2248 Y60.6052 
G01 X-116.4852 Y60.6052 
G01 X-116.4852 Y19.4048 
G01 X-107.9033 Y19.4048 
G01 X-107.8131 Y19.3806 
G01 X-107.7321 Y19.3339 
G01 X-107.6661 Y19.2678 
G01 X-107.6194 Y19.1869 
G01 X-107.5952 Y19.0967 
G01 X-107.5952 Y11.6539 
G01 X-107.4324 Y11.5527 
G01 X-107.3193 Y11.4396 
G01 X-107.2304 Y11.3066 
G01 X-107.1692 Y11.1589 
G01 X-107.1380 Y11.0020 
G00 Z15.0000 
G00 X-109.6780 Y11.0020 
G01 Z0.0000  F1000  
G01 X-109.6780 Y9.3180  F400   
G01 X-109.7092 Y9.1611  
G01 X-109.7704 Y9.0134  
G01 X-109.8593 Y8.8804  
G01 X-109.9724 Y8.7673  
G01 X-110.1054 Y8.6784  
G01 X-110.2531 Y8.6172  
G01 X-110.4100 Y8.5860  
G01 X-110.5700 Y8.5860  
G01 X-110.7268 Y8.6172  
G01 X-110.8746 Y8.6784  
G01 X-111.0076 Y8.7673  
G01 X-111.1207 Y8.8804  
G01 X-111.2096 Y9.0134  
G01 X-111.2708 Y9.1611  
G01 X-111.3020 Y9.3180  
G01 X-111.3020 Y11.0020 
G01 X-111.2708 Y11.1589 
G01 X-111.2096 Y11.3066 
G01 X-111.1207 Y11.4396 
G01 X-111.0076 Y11.5527 
G01 X-110.8746 Y11.6416 
G01 X-110.8448 Y16.1552 
G01 X-119.4267 Y16.1552 
G01 X-119.5169 Y16.1794 
G01 X-119.5979 Y16.2261 
G01 X-119.6639 Y16.2921 
G01 X-119.7106 Y16.3730 
G01 X-119.7348 Y16.4633 
G01 X-119.7348 Y63.5467 
G01 X-119.7106 Y63.6369 
G01 X-119.6639 Y63.7179 
G01 X-119.5979 Y63.7839 
G01 X-119.5169 Y63.8306 
G01 X-119.4267 Y63.8548 
G01 X-97.7433 Y63.8548 
G01 X-97.6531 Y63.8306 
G01 X-97.5721 Y63.7839 
G01 X-97.5061 Y63.7179 
G01 X-97.4594 Y63.6369 
G01 X-97.4352 Y63.5467 
G01 X-97.4352 Y55.3282 
G01 X-97.2805 Y55.2309 
G01 X-97.1691 Y55.1195 
G01 X-97.0817 Y54.9886 
G01 X-97.0214 Y54.8431 
G01 X-96.9907 Y54.6887 
G01 X-96.9907 Y54.5313 
G01 X-97.0214 Y54.3769 
G01 X-97.0817 Y54.2314 
G01 X-97.1691 Y54.1005 
G01 X-97.2805 Y53.9891 
G01 X-97.4114 Y53.9017 
G01 X-97.5569 Y53.8414 
G01 X-97.7113 Y53.8107 
G01 X-97.8687 Y53.8107 
G01 X-98.0231 Y53.8414 
G01 X-98.1686 Y53.9017 
G01 X-98.2995 Y53.9891 
G01 X-98.4109 Y54.1005 
G01 X-98.4983 Y54.2314 
G01 X-98.5586 Y54.3769 
G01 X-98.5893 Y54.5313 
G01 X-98.5893 Y54.6887 
G01 X-98.5586 Y54.8431 
G01 X-98.4983 Y54.9886 
G01 X-98.4109 Y55.1195 
G01 X-98.2995 Y55.2309 
G01 X-98.1686 Y55.3183 
G01 X-98.1448 Y63.1452 
G01 X-119.0252 Y63.1452 
G01 X-119.0252 Y16.8648 
G01 X-110.4433 Y16.8648 
G01 X-110.3531 Y16.8406 
G01 X-110.2721 Y16.7939 
G01 X-110.2061 Y16.7279 
G01 X-110.1594 Y16.6469 
G01 X-110.1352 Y16.5567 
G01 X-110.1352 Y11.6539 
G01 X-109.9724 Y11.5527 
G01 X-109.8593 Y11.4396 
G01 X-109.7704 Y11.3066 
G01 X-109.7092 Y11.1589 
G01 X-109.6780 Y11.0020 
G00 Z15.0000 
G00 X-52.5280 Y71.9620 
G01 Z0.0000  F1000  
G01 X-52.5280 Y70.2780 F400   
G01 X-52.5592 Y70.1211 
G01 X-52.6204 Y69.9734 
G01 X-52.7093 Y69.8404 
G01 X-52.8224 Y69.7273 
G01 X-52.9554 Y69.6384 
G01 X-52.9852 Y62.1833 
G01 X-53.0094 Y62.0931 
G01 X-53.0561 Y62.0121 
G01 X-53.1221 Y61.9461 
G01 X-53.2031 Y61.8994 
G01 X-53.2933 Y61.8752 
G01 X-84.7352 Y61.8752 
G01 X-84.7352 Y55.3282 
G01 X-84.5805 Y55.2309 
G01 X-84.4691 Y55.1195 
G01 X-84.3817 Y54.9886 
G01 X-84.3214 Y54.8431 
G01 X-84.2907 Y54.6887 
G01 X-84.2907 Y54.5313 
G01 X-84.3214 Y54.3769 
G01 X-84.3817 Y54.2314 
G01 X-84.4691 Y54.1005 
G01 X-84.5805 Y53.9891 
G01 X-84.7114 Y53.9017 
G01 X-84.8569 Y53.8414 
G01 X-85.0113 Y53.8107 
G01 X-85.1687 Y53.8107 
G01 X-85.3231 Y53.8414 
G01 X-85.4686 Y53.9017 
G01 X-85.5995 Y53.9891 
G01 X-85.7109 Y54.1005 
G01 X-85.7983 Y54.2314 
G01 X-85.8586 Y54.3769 
G01 X-85.8893 Y54.5313 
G01 X-85.8893 Y54.6887 
G01 X-85.8586 Y54.8431 
G01 X-85.7983 Y54.9886 
G01 X-85.7109 Y55.1195 
G01 X-85.5995 Y55.2309 
G01 X-85.4686 Y55.3183 
G01 X-85.4448 Y62.2767 
G01 X-85.4206 Y62.3669 
G01 X-85.3739 Y62.4479 
G01 X-85.3079 Y62.5139 
G01 X-85.2269 Y62.5606 
G01 X-85.1367 Y62.5848 
G01 X-53.6948 Y62.5848 
G01 X-53.6948 Y69.6261 
G01 X-53.8576 Y69.7273 
G01 X-53.9707 Y69.8404 
G01 X-54.0596 Y69.9734 
G01 X-54.1208 Y70.1211 
G01 X-54.1520 Y70.2780 
G01 X-54.1520 Y71.9620 
G01 X-54.1208 Y72.1189 
G01 X-54.0596 Y72.2666 
G01 X-53.9707 Y72.3996 
G01 X-53.8576 Y72.5127 
G01 X-53.7246 Y72.6016 
G01 X-53.5769 Y72.6628 
G01 X-53.4200 Y72.6940 
G01 X-53.2600 Y72.6940 
G01 X-53.1031 Y72.6628 
G01 X-52.9554 Y72.6016 
G01 X-52.8224 Y72.5127 
G01 X-52.7093 Y72.3996 
G01 X-52.6204 Y72.2666 
G01 X-52.5592 Y72.1189 
G01 X-52.5280 Y71.9620 
G00 Z15.0000 
G00 X-60.1480 Y71.9620 
G01 Z0.0000  F1000  
G01 X-60.1480 Y70.2780 F400   
G01 X-60.1792 Y70.1211 
G01 X-60.2404 Y69.9734 
G01 X-60.3293 Y69.8404 
G01 X-60.4424 Y69.7273 
G01 X-60.5754 Y69.6384 
G01 X-60.6052 Y65.9933 
G01 X-60.6294 Y65.9031 
G01 X-60.6761 Y65.8221 
G01 X-60.7421 Y65.7561 
G01 X-60.8231 Y65.7094 
G01 X-60.9133 Y65.6852 
G01 X-92.3552 Y65.6852 
G01 X-92.3552 Y55.3282 
G01 X-92.2005 Y55.2309 
G01 X-92.0891 Y55.1195 
G01 X-92.0017 Y54.9886 
G01 X-91.9414 Y54.8431 
G01 X-91.9107 Y54.6887 
G01 X-91.9107 Y54.5313 
G01 X-91.9414 Y54.3769 
G01 X-92.0017 Y54.2314 
G01 X-92.0891 Y54.1005 
G01 X-92.2005 Y53.9891 
G01 X-92.3314 Y53.9017 
G01 X-92.4768 Y53.8414 
G01 X-92.6313 Y53.8107 
G01 X-92.7887 Y53.8107 
G01 X-92.9431 Y53.8414 
G01 X-93.0886 Y53.9017 
G01 X-93.2195 Y53.9891 
G01 X-93.3309 Y54.1005 
G01 X-93.4183 Y54.2314 
G01 X-93.4786 Y54.3769 
G01 X-93.5093 Y54.5313 
G01 X-93.5093 Y54.6887 
G01 X-93.4786 Y54.8431 
G01 X-93.4183 Y54.9886 
G01 X-93.3309 Y55.1195 
G01 X-93.2195 Y55.2309 
G01 X-93.0886 Y55.3183 
G01 X-93.0648 Y66.0867 
G01 X-93.0406 Y66.1769 
G01 X-92.9939 Y66.2579 
G01 X-92.9279 Y66.3239 
G01 X-92.8469 Y66.3706 
G01 X-92.7567 Y66.3948 
G01 X-61.3148 Y66.3948 
G01 X-61.3148 Y69.6261 
G01 X-61.4776 Y69.7273 
G01 X-61.5907 Y69.8404 
G01 X-61.6796 Y69.9734 
G01 X-61.7408 Y70.1211 
G01 X-61.7720 Y70.2780 
G01 X-61.7720 Y71.9620 
G01 X-61.7408 Y72.1189 
G01 X-61.6796 Y72.2666 
G01 X-61.5907 Y72.3996 
G01 X-61.4776 Y72.5127 
G01 X-61.3446 Y72.6016 
G01 X-61.1969 Y72.6628 
G01 X-61.0400 Y72.6940 
G01 X-60.8800 Y72.6940 
G01 X-60.7231 Y72.6628 
G01 X-60.5754 Y72.6016 
G01 X-60.4424 Y72.5127 
G01 X-60.3293 Y72.3996 
G01 X-60.2404 Y72.2666 
G01 X-60.1792 Y72.1189 
G01 X-60.1480 Y71.9620 
G00 Z15.0000 
G00 X-49.9880 Y32.5920 
G01 Z0.0000  F1000  
G01 X-49.9880 Y30.9080 F400   
G01 X-50.0192 Y30.7511 
G01 X-50.0804 Y30.6034 
G01 X-50.1693 Y30.4704 
G01 X-50.2824 Y30.3573 
G01 X-50.4154 Y30.2684 
G01 X-50.5631 Y30.2072 
G01 X-50.7200 Y30.1760 
G01 X-50.8800 Y30.1760 
G01 X-51.0369 Y30.2072 
G01 X-51.1846 Y30.2684 
G01 X-51.3176 Y30.3573 
G01 X-51.4307 Y30.4704 
G01 X-51.5196 Y30.6034 
G01 X-51.5808 Y30.7511 
G01 X-51.6120 Y30.9080 
G01 X-51.6120 Y32.5920 
G01 X-51.5808 Y32.7489 
G01 X-51.5196 Y32.8966 
G01 X-51.4307 Y33.0296 
G01 X-51.3176 Y33.1427 
G01 X-51.1846 Y33.2316 
G01 X-51.0369 Y33.2928 
G01 X-50.8800 Y33.3240 
G01 X-50.7200 Y33.3240 
G01 X-50.5631 Y33.2928 
G01 X-50.4154 Y33.2316 
G01 X-50.2824 Y33.1427 
G01 X-50.1693 Y33.0296 
G01 X-50.0804 Y32.8966 
G01 X-50.0192 Y32.7489 
G01 X-49.9880 Y32.5920 
G00 Z15.0000 
G00 X-52.5280 Y32.5920 
G01 Z0.0000  F1000  
G01 X-52.5280 Y30.9080 F400   
G01 X-52.5592 Y30.7511 
G01 X-52.6204 Y30.6034 
G01 X-52.7093 Y30.4704 
G01 X-52.8224 Y30.3573 
G01 X-52.9554 Y30.2684 
G01 X-53.1031 Y30.2072 
G01 X-53.2600 Y30.1760 
G01 X-53.4200 Y30.1760 
G01 X-53.5769 Y30.2072 
G01 X-53.7246 Y30.2684 
G01 X-53.8576 Y30.3573 
G01 X-53.9707 Y30.4704 
G01 X-54.0596 Y30.6034 
G01 X-54.1208 Y30.7511 
G01 X-54.1520 Y30.9080 
G01 X-54.1520 Y32.5920 
G01 X-54.1208 Y32.7489 
G01 X-54.0596 Y32.8966 
G01 X-53.9707 Y33.0296 
G01 X-53.8576 Y33.1427 
G01 X-53.7246 Y33.2316 
G01 X-53.5769 Y33.2928 
G01 X-53.4200 Y33.3240 
G01 X-53.2600 Y33.3240 
G01 X-53.1031 Y33.2928 
G01 X-52.9554 Y33.2316 
G01 X-52.8224 Y33.1427 
G01 X-52.7093 Y33.0296 
G01 X-52.6204 Y32.8966 
G01 X-52.5592 Y32.7489 
G01 X-52.5280 Y32.5920 
G00 Z15.0000 
G00 X-55.0680 Y32.5920 
G01 Z0.0000  F1000  
G01 X-55.0680 Y30.9080 F400   
G01 X-55.0992 Y30.7511 
G01 X-55.1604 Y30.6034 
G01 X-55.2493 Y30.4704 
G01 X-55.3624 Y30.3573 
G01 X-55.4954 Y30.2684 
G01 X-55.6431 Y30.2072 
G01 X-55.8000 Y30.1760 
G01 X-55.9600 Y30.1760 
G01 X-56.1168 Y30.2072 
G01 X-56.2646 Y30.2684 
G01 X-56.3976 Y30.3573 
G01 X-56.5107 Y30.4704 
G01 X-56.5996 Y30.6034 
G01 X-56.6608 Y30.7511 
G01 X-56.6920 Y30.9080 
G01 X-56.6920 Y32.5920 
G01 X-56.6608 Y32.7489 
G01 X-56.5996 Y32.8966 
G01 X-56.5107 Y33.0296 
G01 X-56.3976 Y33.1427 
G01 X-56.2646 Y33.2316 
G01 X-56.1168 Y33.2928 
G01 X-55.9600 Y33.3240 
G01 X-55.8000 Y33.3240 
G01 X-55.6431 Y33.2928 
G01 X-55.4954 Y33.2316 
G01 X-55.3624 Y33.1427 
G01 X-55.2493 Y33.0296 
G01 X-55.1604 Y32.8966 
G01 X-55.0992 Y32.7489 
G01 X-55.0680 Y32.5920 
G00 Z15.0000 
G00 X-57.6080 Y32.5920 
G01 Z0.0000  F1000  
G01 X-57.6080 Y30.9080 F400   
G01 X-57.6392 Y30.7511 
G01 X-57.7004 Y30.6034 
G01 X-57.7893 Y30.4704 
G01 X-57.9024 Y30.3573 
G01 X-58.0354 Y30.2684 
G01 X-58.1831 Y30.2072 
G01 X-58.3400 Y30.1760 
G01 X-58.5000 Y30.1760 
G01 X-58.6569 Y30.2072 
G01 X-58.8046 Y30.2684 
G01 X-58.9376 Y30.3573 
G01 X-59.0507 Y30.4704 
G01 X-59.1396 Y30.6034 
G01 X-59.2008 Y30.7511 
G01 X-59.2320 Y30.9080 
G01 X-59.2320 Y32.5920 
G01 X-59.2008 Y32.7489 
G01 X-59.1396 Y32.8966 
G01 X-59.0507 Y33.0296 
G01 X-58.9376 Y33.1427 
G01 X-58.8046 Y33.2316 
G01 X-58.6569 Y33.2928 
G01 X-58.5000 Y33.3240 
G01 X-58.3400 Y33.3240 
G01 X-58.1831 Y33.2928 
G01 X-58.0354 Y33.2316 
G01 X-57.9024 Y33.1427 
G01 X-57.7893 Y33.0296 
G01 X-57.7004 Y32.8966 
G01 X-57.6392 Y32.7489 
G01 X-57.6080 Y32.5920 
G00 Z15.0000 
G00 X-60.1480 Y32.5920 
G01 Z0.0000  F1000  
G01 X-60.1480 Y30.9080 F400   
G01 X-60.1792 Y30.7511 
G01 X-60.2404 Y30.6034 
G01 X-60.3293 Y30.4704 
G01 X-60.4424 Y30.3573 
G01 X-60.5754 Y30.2684 
G01 X-60.7231 Y30.2072 
G01 X-60.8800 Y30.1760 
G01 X-61.0400 Y30.1760 
G01 X-61.1969 Y30.2072 
G01 X-61.3446 Y30.2684 
G01 X-61.4776 Y30.3573 
G01 X-61.5907 Y30.4704 
G01 X-61.6796 Y30.6034 
G01 X-61.7408 Y30.7511 
G01 X-61.7720 Y30.9080 
G01 X-61.7720 Y32.5920 
G01 X-61.7408 Y32.7489 
G01 X-61.6796 Y32.8966 
G01 X-61.5907 Y33.0296 
G01 X-61.4776 Y33.1427 
G01 X-61.3446 Y33.2316 
G01 X-61.1969 Y33.2928 
G01 X-61.0400 Y33.3240 
G01 X-60.8800 Y33.3240 
G01 X-60.7231 Y33.2928 
G01 X-60.5754 Y33.2316 
G01 X-60.4424 Y33.1427 
G01 X-60.3293 Y33.0296 
G01 X-60.2404 Y32.8966 
G01 X-60.1792 Y32.7489 
G01 X-60.1480 Y32.5920 
G00 Z15.0000 
G00 X-62.6880 Y32.5920 
G01 Z0.0000  F1000  
G01 X-62.6880 Y30.9080 F400   
G01 X-62.7192 Y30.7511 
G01 X-62.7804 Y30.6034 
G01 X-62.8693 Y30.4704 
G01 X-62.9824 Y30.3573 
G01 X-63.1154 Y30.2684 
G01 X-63.1452 Y27.8933 
G01 X-63.1694 Y27.8031 
G01 X-63.2161 Y27.7221 
G01 X-63.2821 Y27.6561 
G01 X-63.3631 Y27.6094 
G01 X-63.4533 Y27.5852 
G01 X-65.6852 Y27.5852 
G01 X-65.6852 Y24.3539 
G01 X-65.5224 Y24.2527 
G01 X-65.4093 Y24.1396 
G01 X-65.3204 Y24.0066 
G01 X-65.2592 Y23.8589 
G01 X-65.2280 Y23.7020 
G01 X-65.2280 Y22.0180 
G01 X-65.2592 Y21.8611 
G01 X-65.3204 Y21.7134 
G01 X-65.4093 Y21.5804 
G01 X-65.5224 Y21.4673 
G01 X-65.6554 Y21.3784 
G01 X-65.6852 Y19.4048 
G01 X-62.1833 Y19.4048 
G01 X-62.0931 Y19.3806 
G01 X-62.0121 Y19.3339 
G01 X-61.9461 Y19.2678 
G01 X-61.8994 Y19.1869 
G01 X-61.8752 Y19.0967 
G01 X-61.8752 Y14.3248 
G01 X-60.3399 Y14.3248 
G01 X-59.9843 Y14.6804 
G01 X-59.3957 Y14.6804 
G01 X-58.9796 Y14.2643 
G01 X-58.9796 Y13.6757 
G01 X-59.3352 Y13.3201 
G01 X-59.3352 Y13.0548 
G01 X-4.1648 Y13.0548 
G01 X-4.1648 Y41.5552 
G01 X-6.6448 Y41.5552 
G01 X-6.6761 Y41.4590 
G01 X-6.7601 Y41.2942 
G01 X-6.8688 Y41.1445 
G01 X-6.9995 Y41.0138 
G01 X-7.1492 Y40.9051 
G01 X-7.3140 Y40.8211 
G01 X-7.4899 Y40.7639 
G01 X-7.6725 Y40.7350 
G01 X-10.1075 Y40.7350 
G01 X-10.2901 Y40.7639 
G01 X-10.4660 Y40.8211 
G01 X-10.6308 Y40.9051 
G01 X-10.7805 Y41.0138 
G01 X-10.9112 Y41.1445 
G01 X-11.0199 Y41.2942 
G01 X-11.1039 Y41.4590 
G01 X-11.1611 Y41.6349 
G01 X-11.1900 Y41.8175 
G01 X-11.1900 Y42.0025 
G01 X-11.1611 Y42.1851 
G01 X-11.1039 Y42.3610 
G01 X-11.0199 Y42.5258 
G01 X-10.9112 Y42.6755 
G01 X-10.7805 Y42.8062 
G01 X-10.6308 Y42.9149 
G01 X-10.4660 Y42.9989 
G01 X-10.2901 Y43.0561 
G01 X-10.1075 Y43.0850 
G01 X-7.6725 Y43.0850 
G01 X-7.4899 Y43.0561 
G01 X-7.3140 Y42.9989 
G01 X-7.1492 Y42.9149 
G01 X-6.9995 Y42.8062 
G01 X-6.8688 Y42.6755 
G01 X-6.7601 Y42.5258 
G01 X-6.6761 Y42.3610 
G01 X-6.6448 Y42.2648 
G01 X-3.7633 Y42.2648 
G01 X-3.6731 Y42.2406 
G01 X-3.5921 Y42.1939 
G01 X-3.5261 Y42.1279 
G01 X-3.4794 Y42.0469 
G01 X-3.4552 Y41.9567 
G01 X-3.4552 Y12.6533 
G01 X-3.4794 Y12.5631 
G01 X-3.5261 Y12.4821 
G01 X-3.5921 Y12.4161 
G01 X-3.6731 Y12.3694 
G01 X-3.7633 Y12.3452 
G01 X-59.3352 Y12.3452 
G01 X-59.3352 Y10.1133 
G01 X-59.3594 Y10.0231 
G01 X-59.4061 Y9.9421  
G01 X-59.4721 Y9.8761  
G01 X-59.5531 Y9.8294  
G01 X-59.6433 Y9.8052  
G01 X-63.0690 Y9.8052  
G01 X-63.0690 Y8.4629  
G01 X-64.3589 Y8.4336  
G01 X-64.3882 Y10.7395 
G01 X-63.0983 Y10.7688 
G01 X-63.0690 Y10.5148 
G01 X-60.0448 Y10.5148 
G01 X-60.0448 Y13.3201 
G01 X-60.3399 Y13.6152 
G01 X-62.2767 Y13.6152 
G01 X-62.3669 Y13.6394 
G01 X-62.4479 Y13.6861 
G01 X-62.5139 Y13.7521 
G01 X-62.5606 Y13.8331 
G01 X-62.5848 Y13.9233 
G01 X-62.5848 Y18.6952 
G01 X-66.0867 Y18.6952 
G01 X-66.1769 Y18.7194 
G01 X-66.2579 Y18.7661 
G01 X-66.3239 Y18.8321 
G01 X-66.3706 Y18.9131 
G01 X-66.3948 Y19.0033 
G01 X-66.3948 Y21.3661 
G01 X-66.5576 Y21.4673 
G01 X-66.6707 Y21.5804 
G01 X-66.7596 Y21.7134 
G01 X-66.8208 Y21.8611 
G01 X-66.8520 Y22.0180 
G01 X-66.8520 Y23.7020 
G01 X-66.8208 Y23.8589 
G01 X-66.7596 Y24.0066 
G01 X-66.6707 Y24.1396 
G01 X-66.5576 Y24.2527 
G01 X-66.4246 Y24.3416 
G01 X-66.3948 Y27.9867 
G01 X-66.3706 Y28.0769 
G01 X-66.3239 Y28.1578 
G01 X-66.2579 Y28.2239 
G01 X-66.1769 Y28.2706 
G01 X-66.0867 Y28.2948 
G01 X-63.8548 Y28.2948 
G01 X-63.8548 Y30.2561 
G01 X-64.0176 Y30.3573 
G01 X-64.1307 Y30.4704 
G01 X-64.2196 Y30.6034 
G01 X-64.2808 Y30.7511 
G01 X-64.3120 Y30.9080 
G01 X-64.3120 Y32.5920 
G01 X-64.2808 Y32.7489 
G01 X-64.2196 Y32.8966 
G01 X-64.1307 Y33.0296 
G01 X-64.0176 Y33.1427 
G01 X-63.8846 Y33.2316 
G01 X-63.8548 Y43.9015 
G01 X-63.9164 Y43.9426 
G01 X-64.0074 Y44.0336 
G01 X-64.0789 Y44.1406 
G01 X-64.1281 Y44.2595 
G01 X-64.1532 Y44.3857 
G01 X-64.1532 Y44.5143 
G01 X-64.1281 Y44.6405 
G01 X-64.0789 Y44.7594 
G01 X-64.0074 Y44.8664 
G01 X-63.9164 Y44.9574 
G01 X-63.8094 Y45.0289 
G01 X-63.6905 Y45.0781 
G01 X-63.5643 Y45.1032 
G01 X-63.4357 Y45.1032 
G01 X-63.3095 Y45.0781 
G01 X-63.1906 Y45.0289 
G01 X-63.0836 Y44.9574 
G01 X-62.9926 Y44.8664 
G01 X-62.9211 Y44.7594 
G01 X-62.8719 Y44.6405 
G01 X-62.8468 Y44.5143 
G01 X-62.8468 Y44.3857 
G01 X-62.8719 Y44.2595 
G01 X-62.9211 Y44.1406 
G01 X-62.9926 Y44.0336 
G01 X-63.0836 Y43.9426 
G01 X-63.1452 Y43.9015 
G01 X-63.1452 Y33.2439 
G01 X-62.9824 Y33.1427 
G01 X-62.8693 Y33.0296 
G01 X-62.7804 Y32.8966 
G01 X-62.7192 Y32.7489 
G01 X-62.6880 Y32.5920 
G00 Z15.0000 
G00 X-65.2280 Y32.5920 
G01 Z0.0000  F1000  
G01 X-65.2280 Y30.9080 F400   
G01 X-65.2592 Y30.7511 
G01 X-65.3204 Y30.6034 
G01 X-65.4093 Y30.4704 
G01 X-65.5224 Y30.3573 
G01 X-65.6554 Y30.2684 
G01 X-65.8031 Y30.2072 
G01 X-65.9600 Y30.1760 
G01 X-66.1200 Y30.1760 
G01 X-66.2769 Y30.2072 
G01 X-66.4246 Y30.2684 
G01 X-66.5576 Y30.3573 
G01 X-66.6707 Y30.4704 
G01 X-66.7596 Y30.6034 
G01 X-66.8208 Y30.7511 
G01 X-66.8520 Y30.9080 
G01 X-66.8520 Y32.5920 
G01 X-66.8208 Y32.7489 
G01 X-66.7596 Y32.8966 
G01 X-66.6707 Y33.0296 
G01 X-66.5576 Y33.1427 
G01 X-66.4246 Y33.2316 
G01 X-66.2769 Y33.2928 
G01 X-66.1200 Y33.3240 
G01 X-65.9600 Y33.3240 
G01 X-65.8031 Y33.2928 
G01 X-65.6554 Y33.2316 
G01 X-65.5224 Y33.1427 
G01 X-65.4093 Y33.0296 
G01 X-65.3204 Y32.8966 
G01 X-65.2592 Y32.7489 
G01 X-65.2280 Y32.5920 
G00 Z15.0000 
G00 X-67.7680 Y32.5920 
G01 Z0.0000  F1000  
G01 X-67.7680 Y30.9080 F400   
G01 X-67.7992 Y30.7511 
G01 X-67.8604 Y30.6034 
G01 X-67.9493 Y30.4704 
G01 X-68.0624 Y30.3573 
G01 X-68.1954 Y30.2684 
G01 X-68.2252 Y24.3539 
G01 X-68.0624 Y24.2527 
G01 X-67.9493 Y24.1396 
G01 X-67.8604 Y24.0066 
G01 X-67.7992 Y23.8589 
G01 X-67.7680 Y23.7020 
G01 X-67.7680 Y22.0180 
G01 X-67.7992 Y21.8611 
G01 X-67.8604 Y21.7134 
G01 X-67.9493 Y21.5804 
G01 X-68.0624 Y21.4673 
G01 X-68.1954 Y21.3784 
G01 X-68.2252 Y16.1538 
G01 X-67.8900 Y16.1538 
G01 X-67.8900 Y16.9197 
G01 X-64.2193 Y16.9490 
G01 X-64.1900 Y14.6783 
G01 X-65.6852 Y14.6490 
G01 X-65.6852 Y10.7688 
G01 X-65.4097 Y10.7688 
G01 X-65.3804 Y8.4629  
G01 X-65.6852 Y8.4336  
G01 X-65.6852 Y4.4950  
G01 X-65.0541 Y4.4950  
G01 X-65.0248 Y0.6143  
G01 X-67.0259 Y0.5850  
G01 X-67.0552 Y4.4657  
G01 X-66.3948 Y4.4950  
G01 X-66.3948 Y8.4336  
G01 X-66.6703 Y8.4336  
G01 X-66.6996 Y10.7395 
G01 X-66.3948 Y10.7688 
G01 X-66.3948 Y14.6490 
G01 X-67.8607 Y14.6490 
G01 X-67.8900 Y15.4442 
G01 X-68.6267 Y15.4442 
G01 X-68.7169 Y15.4684 
G01 X-68.7978 Y15.5151 
G01 X-68.8639 Y15.5811 
G01 X-68.9106 Y15.6621 
G01 X-68.9348 Y15.7523 
G01 X-68.9348 Y21.3661 
G01 X-69.0976 Y21.4673 
G01 X-69.2107 Y21.5804 
G01 X-69.2996 Y21.7134 
G01 X-69.3608 Y21.8611 
G01 X-69.3920 Y22.0180 
G01 X-69.3920 Y23.7020 
G01 X-69.3608 Y23.8589 
G01 X-69.2996 Y24.0066 
G01 X-69.2107 Y24.1396 
G01 X-69.0976 Y24.2527 
G01 X-68.9646 Y24.3416 
G01 X-68.9348 Y30.2561 
G01 X-69.0976 Y30.3573 
G01 X-69.2107 Y30.4704 
G01 X-69.2996 Y30.6034 
G01 X-69.3608 Y30.7511 
G01 X-69.3920 Y30.9080 
G01 X-69.3920 Y32.5920 
G01 X-69.3608 Y32.7489 
G01 X-69.2996 Y32.8966 
G01 X-69.2107 Y33.0296 
G01 X-69.0976 Y33.1427 
G01 X-68.9646 Y33.2316 
G01 X-68.9348 Y43.9015 
G01 X-68.9964 Y43.9426 
G01 X-69.0874 Y44.0336 
G01 X-69.1589 Y44.1406 
G01 X-69.2081 Y44.2595 
G01 X-69.2332 Y44.3857 
G01 X-69.2332 Y44.5143 
G01 X-69.2081 Y44.6405 
G01 X-69.1589 Y44.7594 
G01 X-69.0874 Y44.8664 
G01 X-68.9964 Y44.9574 
G01 X-68.8894 Y45.0289 
G01 X-68.7705 Y45.0781 
G01 X-68.6443 Y45.1032 
G01 X-68.5157 Y45.1032 
G01 X-68.3895 Y45.0781 
G01 X-68.2706 Y45.0289 
G01 X-68.1636 Y44.9574 
G01 X-68.0726 Y44.8664 
G01 X-68.0011 Y44.7594 
G01 X-67.9519 Y44.6405 
G01 X-67.9268 Y44.5143 
G01 X-67.9268 Y44.3857 
G01 X-67.9519 Y44.2595 
G01 X-68.0011 Y44.1406 
G01 X-68.0726 Y44.0336 
G01 X-68.1636 Y43.9426 
G01 X-68.2252 Y43.9015 
G01 X-68.2252 Y33.2439 
G01 X-68.0624 Y33.1427 
G01 X-67.9493 Y33.0296 
G01 X-67.8604 Y32.8966 
G01 X-67.7992 Y32.7489 
G01 X-67.7680 Y32.5920 
G00 Z15.0000 
G00 X-78.2400 Y47.7893 
G01 Z0.0000  F1000  
G01 X-76.7000 Y47.7893 F400   
G01 X-76.6707 Y47.7600 
G01 X-76.6707 Y47.3448 
G01 X-46.9433 Y47.3448 
G01 X-46.8531 Y47.3206 
G01 X-46.7721 Y47.2739 
G01 X-46.7061 Y47.2079 
G01 X-46.6594 Y47.1269 
G01 X-46.6352 Y47.0367 
G01 X-46.6352 Y24.0833 
G01 X-46.6594 Y23.9931 
G01 X-46.7061 Y23.9121 
G01 X-46.7721 Y23.8461 
G01 X-46.8531 Y23.7994 
G01 X-46.9433 Y23.7752 
G01 X-59.0401 Y23.7752 
G01 X-59.3352 Y23.4801 
G01 X-59.3352 Y22.8133 
G01 X-59.3594 Y22.7231 
G01 X-59.4061 Y22.6421 
G01 X-59.4721 Y22.5761 
G01 X-59.5531 Y22.5294 
G01 X-59.6433 Y22.5052 
G01 X-62.6880 Y22.5052 
G01 X-62.6880 Y22.0180 
G01 X-62.7192 Y21.8611 
G01 X-62.7804 Y21.7134 
G01 X-62.8693 Y21.5804 
G01 X-62.9824 Y21.4673 
G01 X-63.1154 Y21.3784 
G01 X-63.2631 Y21.3172 
G01 X-63.4200 Y21.2860 
G01 X-63.5800 Y21.2860 
G01 X-63.7369 Y21.3172 
G01 X-63.8846 Y21.3784 
G01 X-64.0176 Y21.4673 
G01 X-64.1307 Y21.5804 
G01 X-64.2196 Y21.7134 
G01 X-64.2808 Y21.8611 
G01 X-64.3120 Y22.0180 
G01 X-64.3120 Y23.7020 
G01 X-64.2808 Y23.8589 
G01 X-64.2196 Y24.0066 
G01 X-64.1307 Y24.1396 
G01 X-64.0176 Y24.2527 
G01 X-63.8846 Y24.3416 
G01 X-63.7369 Y24.4028 
G01 X-63.5800 Y24.4340 
G01 X-63.4200 Y24.4340 
G01 X-63.2631 Y24.4028 
G01 X-63.1154 Y24.3416 
G01 X-62.9824 Y24.2527 
G01 X-62.8693 Y24.1396 
G01 X-62.7804 Y24.0066 
G01 X-62.7192 Y23.8589 
G01 X-62.6880 Y23.7020 
G01 X-62.6880 Y23.2148 
G01 X-60.0448 Y23.2148 
G01 X-60.0448 Y23.4801 
G01 X-60.4004 Y23.8357 
G01 X-60.4004 Y24.4243 
G01 X-59.9843 Y24.8404 
G01 X-59.3957 Y24.8404 
G01 X-59.0401 Y24.4848 
G01 X-47.3448 Y24.4848 
G01 X-47.3448 Y46.6352 
G01 X-76.6707 Y46.6352 
G01 X-76.6707 Y46.2200 
G01 X-78.2400 Y46.1907 
G01 X-78.2693 Y47.7600 
G00 Z15.0000 
G00 X-80.8093 Y46.9113 
G01 Z0.0000  F1000  
G01 X-80.8093 Y47.0687 F400   
G01 X-80.7786 Y47.2231 
G01 X-80.7183 Y47.3686 
G01 X-80.6309 Y47.4995 
G01 X-80.5195 Y47.6109 
G01 X-80.3886 Y47.6983 
G01 X-80.3648 Y49.5767 
G01 X-80.3406 Y49.6669 
G01 X-80.2939 Y49.7478 
G01 X-80.2279 Y49.8139 
G01 X-80.1469 Y49.8606 
G01 X-80.0567 Y49.8848 
G01 X-43.1333 Y49.8848 
G01 X-43.0431 Y49.8606 
G01 X-42.9621 Y49.8139 
G01 X-42.8961 Y49.7478 
G01 X-42.8494 Y49.6669 
G01 X-42.8252 Y49.5767 
G01 X-42.8252 Y42.2648 
G01 X-30.8348 Y42.2648 
G01 X-30.8348 Y51.4817 
G01 X-30.8106 Y51.5719 
G01 X-30.7639 Y51.6529 
G01 X-30.6979 Y51.7189 
G01 X-30.6169 Y51.7656 
G01 X-30.5267 Y51.7898 
G01 X-27.3199 Y51.7898 
G01 X-26.9643 Y52.1454 
G01 X-26.3757 Y52.1454 
G01 X-25.9596 Y51.7293 
G01 X-25.9596 Y51.1407 
G01 X-26.3757 Y50.7246 
G01 X-26.9643 Y50.7246 
G01 X-27.3199 Y51.0802 
G01 X-30.1252 Y51.0802 
G01 X-30.1252 Y41.8633 
G01 X-30.1494 Y41.7731 
G01 X-30.1961 Y41.6921 
G01 X-30.2621 Y41.6261 
G01 X-30.3431 Y41.5794 
G01 X-30.4333 Y41.5552 
G01 X-43.2267 Y41.5552 
G01 X-43.3169 Y41.5794 
G01 X-43.3979 Y41.6261 
G01 X-43.4639 Y41.6921 
G01 X-43.5106 Y41.7731 
G01 X-43.5348 Y41.8633 
G01 X-43.5348 Y49.1752 
G01 X-79.6552 Y49.1752 
G01 X-79.6552 Y47.7082 
G01 X-79.5005 Y47.6109 
G01 X-79.3891 Y47.4995 
G01 X-79.3017 Y47.3686 
G01 X-79.2414 Y47.2231 
G01 X-79.2107 Y47.0687 
G01 X-79.2107 Y46.9113 
G01 X-79.2414 Y46.7569 
G01 X-79.3017 Y46.6114 
G01 X-79.3891 Y46.4805 
G01 X-79.5005 Y46.3691 
G01 X-79.6314 Y46.2817 
G01 X-79.7769 Y46.2214 
G01 X-79.9313 Y46.1907 
G01 X-80.0887 Y46.1907 
G01 X-80.2431 Y46.2214 
G01 X-80.3886 Y46.2817 
G01 X-80.5195 Y46.3691 
G01 X-80.6309 Y46.4805 
G01 X-80.7183 Y46.6114 
G01 X-80.7786 Y46.7569 
G01 X-80.8093 Y46.9113 
G00 Z15.0000 
G00 X-88.4293 Y46.9113 
G01 Z0.0000  F1000  
G01 X-88.4293 Y47.0687 F400   
G01 X-88.3986 Y47.2231 
G01 X-88.3383 Y47.3686 
G01 X-88.2509 Y47.4995 
G01 X-88.1395 Y47.6109 
G01 X-88.0086 Y47.6983 
G01 X-87.8631 Y47.7586 
G01 X-87.7087 Y47.7893 
G01 X-87.5513 Y47.7893 
G01 X-87.3969 Y47.7586 
G01 X-87.2514 Y47.6983 
G01 X-87.1205 Y47.6109 
G01 X-87.0091 Y47.4995 
G01 X-86.9217 Y47.3686 
G01 X-86.8614 Y47.2231 
G01 X-86.8307 Y47.0687 
G01 X-86.8307 Y46.9113 
G01 X-86.8614 Y46.7569 
G01 X-86.9217 Y46.6114 
G01 X-87.0091 Y46.4805 
G01 X-87.1205 Y46.3691 
G01 X-87.2514 Y46.2817 
G01 X-87.2752 Y25.7548 
G01 X-73.6133 Y25.7548 
G01 X-73.5230 Y25.7306 
G01 X-73.4421 Y25.6839 
G01 X-73.3761 Y25.6179 
G01 X-73.3294 Y25.5369 
G01 X-73.3052 Y25.4467 
G01 X-73.3052 Y24.3539 
G01 X-73.1424 Y24.2527 
G01 X-73.0293 Y24.1396 
G01 X-72.9404 Y24.0066 
G01 X-72.8792 Y23.8589 
G01 X-72.8480 Y23.7020 
G01 X-72.8480 Y22.0180 
G01 X-72.8792 Y21.8611 
G01 X-72.9404 Y21.7134 
G01 X-73.0293 Y21.5804 
G01 X-73.1424 Y21.4673 
G01 X-73.2754 Y21.3784 
G01 X-73.4231 Y21.3172 
G01 X-73.5800 Y21.2860 
G01 X-73.7400 Y21.2860 
G01 X-73.8969 Y21.3172 
G01 X-74.0446 Y21.3784 
G01 X-74.1776 Y21.4673 
G01 X-74.2907 Y21.5804 
G01 X-74.3796 Y21.7134 
G01 X-74.4408 Y21.8611 
G01 X-74.4720 Y22.0180 
G01 X-74.4720 Y23.7020 
G01 X-74.4408 Y23.8589 
G01 X-74.3796 Y24.0066 
G01 X-74.2907 Y24.1396 
G01 X-74.1776 Y24.2527 
G01 X-74.0446 Y24.3416 
G01 X-74.0148 Y25.0452 
G01 X-87.6767 Y25.0452 
G01 X-87.7669 Y25.0694 
G01 X-87.8479 Y25.1161 
G01 X-87.9139 Y25.1821 
G01 X-87.9606 Y25.2630 
G01 X-87.9848 Y25.3533 
G01 X-87.9848 Y46.2718 
G01 X-88.1395 Y46.3691 
G01 X-88.2509 Y46.4805 
G01 X-88.3383 Y46.6114 
G01 X-88.3986 Y46.7569 
G01 X-88.4293 Y46.9113 
G00 Z15.0000 
G00 X-90.9693 Y46.9113 
G01 Z0.0000  F1000  
G01 X-90.9693 Y47.0687 F400   
G01 X-90.9386 Y47.2231 
G01 X-90.8783 Y47.3686 
G01 X-90.7909 Y47.4995 
G01 X-90.6795 Y47.6109 
G01 X-90.5486 Y47.6983 
G01 X-90.4031 Y47.7586 
G01 X-90.2487 Y47.7893 
G01 X-90.0913 Y47.7893 
G01 X-89.9369 Y47.7586 
G01 X-89.7914 Y47.6983 
G01 X-89.6605 Y47.6109 
G01 X-89.5491 Y47.4995 
G01 X-89.4617 Y47.3686 
G01 X-89.4014 Y47.2231 
G01 X-89.3707 Y47.0687 
G01 X-89.3707 Y46.9113 
G01 X-89.4014 Y46.7569 
G01 X-89.4617 Y46.6114 
G01 X-89.5491 Y46.4805 
G01 X-89.6605 Y46.3691 
G01 X-89.7914 Y46.2817 
G01 X-89.8152 Y20.6748 
G01 X-73.6133 Y20.6748 
G01 X-73.5230 Y20.6506 
G01 X-73.4421 Y20.6039 
G01 X-73.3761 Y20.5379 
G01 X-73.3294 Y20.4569 
G01 X-73.3052 Y20.3667 
G01 X-73.3052 Y4.4950  
G01 X-72.6741 Y4.4950  
G01 X-72.6448 Y0.6143  
G01 X-74.6459 Y0.5850  
G01 X-74.6752 Y4.4657  
G01 X-74.0148 Y4.4950  
G01 X-74.0148 Y19.9652 
G01 X-90.2167 Y19.9652 
G01 X-90.3069 Y19.9894 
G01 X-90.3879 Y20.0361 
G01 X-90.4539 Y20.1021 
G01 X-90.5006 Y20.1831 
G01 X-90.5248 Y20.2733 
G01 X-90.5248 Y46.2718 
G01 X-90.6795 Y46.3691 
G01 X-90.7909 Y46.4805 
G01 X-90.8783 Y46.6114 
G01 X-90.9386 Y46.7569 
G01 X-90.9693 Y46.9113 
G00 Z15.0000 
G00 X-98.5893 Y46.9113 
G01 Z0.0000  F1000  
G01 X-98.5893 Y47.0687 F400   
G01 X-98.5586 Y47.2231 
G01 X-98.4983 Y47.3686 
G01 X-98.4109 Y47.4995 
G01 X-98.2995 Y47.6109 
G01 X-98.1686 Y47.6983 
G01 X-98.1448 Y48.3067 
G01 X-98.1206 Y48.3969 
G01 X-98.0739 Y48.4779 
G01 X-98.0079 Y48.5439 
G01 X-97.9269 Y48.5906 
G01 X-97.8367 Y48.6148 
G01 X-93.9333 Y48.6148 
G01 X-93.8431 Y48.5906 
G01 X-93.7621 Y48.5439 
G01 X-93.6961 Y48.4779 
G01 X-93.6494 Y48.3969 
G01 X-93.6252 Y48.3067 
G01 X-93.6252 Y7.5733  
G01 X-93.6494 Y7.4831  
G01 X-93.6961 Y7.4021  
G01 X-93.7621 Y7.3361  
G01 X-93.8431 Y7.2894  
G01 X-93.9333 Y7.2652  
G01 X-99.1067 Y7.2652  
G01 X-99.1969 Y7.2894  
G01 X-99.2779 Y7.3361  
G01 X-99.3439 Y7.4021  
G01 X-99.3906 Y7.4831  
G01 X-99.4148 Y7.5733  
G01 X-99.4148 Y23.7752 
G01 X-111.8067 Y23.7752 
G01 X-111.8969 Y23.7994 
G01 X-111.9779 Y23.8461 
G01 X-112.0439 Y23.9121 
G01 X-112.0906 Y23.9931 
G01 X-112.1148 Y24.0833 
G01 X-112.1148 Y53.3867 
G01 X-112.0906 Y53.4769 
G01 X-112.0439 Y53.5579 
G01 X-111.9779 Y53.6239 
G01 X-111.8969 Y53.6706 
G01 X-111.8067 Y53.6948 
G01 X-94.3348 Y53.6948 
G01 X-94.3348 Y77.5167 
G01 X-94.3106 Y77.6069 
G01 X-94.2639 Y77.6878 
G01 X-94.1979 Y77.7539 
G01 X-94.1169 Y77.8006 
G01 X-94.0267 Y77.8248 
G01 X-5.0333 Y77.8248 
G01 X-4.9431 Y77.8006 
G01 X-4.8621 Y77.7539 
G01 X-4.7961 Y77.6878 
G01 X-4.7494 Y77.6069 
G01 X-4.7252 Y77.5167 
G01 X-4.7252 Y49.4833 
G01 X-4.7494 Y49.3931 
G01 X-4.7961 Y49.3121 
G01 X-4.8621 Y49.2461 
G01 X-4.9431 Y49.1994 
G01 X-5.0333 Y49.1752 
G01 X-12.3452 Y49.1752 
G01 X-12.3452 Y44.8048 
G01 X-2.4933 Y44.8048 
G01 X-2.4030 Y44.7806 
G01 X-2.3221 Y44.7339 
G01 X-2.2561 Y44.6679 
G01 X-2.2094 Y44.5869 
G01 X-2.1852 Y44.4967 
G01 X-2.1852 Y6.3033  
G01 X-2.2094 Y6.2130  
G01 X-2.2561 Y6.1321  
G01 X-2.3221 Y6.0661  
G01 X-2.4030 Y6.0194  
G01 X-2.4933 Y5.9952  
G01 X-52.9852 Y5.9952  
G01 X-52.9852 Y4.4950  
G01 X-52.3541 Y4.4950  
G01 X-52.3248 Y0.6143  
G01 X-54.3259 Y0.5850  
G01 X-54.3552 Y4.4657  
G01 X-53.6948 Y4.4950  
G01 X-53.6948 Y6.3967  
G01 X-53.6706 Y6.4869  
G01 X-53.6239 Y6.5678  
G01 X-53.5579 Y6.6339  
G01 X-53.4769 Y6.6806  
G01 X-53.3867 Y6.7048  
G01 X-2.8948 Y6.7048  
G01 X-2.8948 Y44.0952 
G01 X-12.7467 Y44.0952 
G01 X-12.8369 Y44.1194 
G01 X-12.9179 Y44.1661 
G01 X-12.9839 Y44.2321 
G01 X-13.0306 Y44.3131 
G01 X-13.0548 Y44.4033 
G01 X-13.0548 Y49.5767 
G01 X-13.0306 Y49.6669 
G01 X-12.9839 Y49.7478 
G01 X-12.9179 Y49.8139 
G01 X-12.8369 Y49.8606 
G01 X-12.7467 Y49.8848 
G01 X-5.4348 Y49.8848 
G01 X-5.4348 Y77.1152 
G01 X-93.6252 Y77.1152 
G01 X-93.6252 Y53.2933 
G01 X-93.6494 Y53.2031 
G01 X-93.6961 Y53.1221 
G01 X-93.7621 Y53.0561 
G01 X-93.8431 Y53.0094 
G01 X-93.9333 Y52.9852 
G01 X-111.4052 Y52.9852 
G01 X-111.4052 Y24.4848 
G01 X-99.0133 Y24.4848 
G01 X-98.9231 Y24.4606 
G01 X-98.8421 Y24.4139 
G01 X-98.7761 Y24.3479 
G01 X-98.7294 Y24.2669 
G01 X-98.7052 Y24.1767 
G01 X-98.7052 Y7.9748  
G01 X-94.3348 Y7.9748  
G01 X-94.3348 Y47.9052 
G01 X-97.4352 Y47.9052 
G01 X-97.4352 Y47.7082 
G01 X-97.2805 Y47.6109 
G01 X-97.1691 Y47.4995 
G01 X-97.0817 Y47.3686 
G01 X-97.0214 Y47.2231 
G01 X-96.9907 Y47.0687 
G01 X-96.9907 Y46.9113 
G01 X-97.0214 Y46.7569 
G01 X-97.0817 Y46.6114 
G01 X-97.1691 Y46.4805 
G01 X-97.2805 Y46.3691 
G01 X-97.4114 Y46.2817 
G01 X-97.5569 Y46.2214 
G01 X-97.7113 Y46.1907 
G01 X-97.8687 Y46.1907 
G01 X-98.0231 Y46.2214 
G01 X-98.1686 Y46.2817 
G01 X-98.2995 Y46.3691 
G01 X-98.4109 Y46.4805 
G01 X-98.4983 Y46.6114 
G01 X-98.5586 Y46.7569 
G01 X-98.5893 Y46.9113 
G00 Z15.0000 
G00 X-101.1293 Y46.9113 
G01 Z0.0000  F1000  
G01 X-101.1293 Y47.0687 F400   
G01 X-101.0986 Y47.2231 
G01 X-101.0383 Y47.3686 
G01 X-100.9509 Y47.4995 
G01 X-100.8395 Y47.6109 
G01 X-100.7086 Y47.6983 
G01 X-100.6848 Y49.5767 
G01 X-100.6606 Y49.6669 
G01 X-100.6139 Y49.7478 
G01 X-100.5479 Y49.8139 
G01 X-100.4669 Y49.8606 
G01 X-100.3767 Y49.8848 
G01 X-81.6348 Y49.8848 
G01 X-81.6348 Y50.8467 
G01 X-81.6106 Y50.9369 
G01 X-81.5639 Y51.0179 
G01 X-81.4978 Y51.0839 
G01 X-81.4169 Y51.1306 
G01 X-81.3267 Y51.1548 
G01 X-38.4548 Y51.1548 
G01 X-38.4548 Y52.1167 
G01 X-38.4306 Y52.2069 
G01 X-38.3839 Y52.2879 
G01 X-38.3178 Y52.3539 
G01 X-38.2369 Y52.4006 
G01 X-38.1467 Y52.4248 
G01 X-36.8449 Y52.4248 
G01 X-36.4893 Y52.7804 
G01 X-35.9007 Y52.7804 
G01 X-35.4846 Y52.3643 
G01 X-35.4846 Y51.7757 
G01 X-35.9007 Y51.3596 
G01 X-36.4893 Y51.3596 
G01 X-36.8449 Y51.7152 
G01 X-37.7452 Y51.7152 
G01 X-37.7452 Y50.7533 
G01 X-37.7694 Y50.6631 
G01 X-37.8161 Y50.5821 
G01 X-37.8821 Y50.5161 
G01 X-37.9631 Y50.4694 
G01 X-38.0533 Y50.4452 
G01 X-80.9252 Y50.4452 
G01 X-80.9252 Y49.4833 
G01 X-80.9494 Y49.3931 
G01 X-80.9961 Y49.3121 
G01 X-81.0621 Y49.2461 
G01 X-81.1431 Y49.1994 
G01 X-81.2333 Y49.1752 
G01 X-99.9752 Y49.1752 
G01 X-99.9752 Y47.7082 
G01 X-99.8205 Y47.6109 
G01 X-99.7091 Y47.4995 
G01 X-99.6217 Y47.3686 
G01 X-99.5614 Y47.2231 
G01 X-99.5307 Y47.0687 
G01 X-99.5307 Y46.9113 
G01 X-99.5614 Y46.7569 
G01 X-99.6217 Y46.6114 
G01 X-99.7091 Y46.4805 
G01 X-99.8205 Y46.3691 
G01 X-99.9514 Y46.2817 
G01 X-100.0969 Y46.2214 
G01 X-100.2513 Y46.1907 
G01 X-100.4087 Y46.1907 
G01 X-100.5631 Y46.2214 
G01 X-100.7086 Y46.2817 
G01 X-100.8395 Y46.3691 
G01 X-100.9509 Y46.4805 
G01 X-101.0383 Y46.6114 
G01 X-101.0986 Y46.7569 
G01 X-101.1293 Y46.9113 
G00 Z15.0000 
G00 X-103.6693 Y46.9113 
G01 Z0.0000  F1000  
G01 X-103.6693 Y47.0687 F400   
G01 X-103.6386 Y47.2231 
G01 X-103.5783 Y47.3686 
G01 X-103.4909 Y47.4995 
G01 X-103.3795 Y47.6109 
G01 X-103.2486 Y47.6983 
G01 X-103.1031 Y47.7586 
G01 X-102.9487 Y47.7893 
G01 X-102.7913 Y47.7893 
G01 X-102.6369 Y47.7586 
G01 X-102.4914 Y47.6983 
G01 X-102.3605 Y47.6109 
G01 X-102.2491 Y47.4995 
G01 X-102.1617 Y47.3686 
G01 X-102.1014 Y47.2231 
G01 X-102.0707 Y47.0687 
G01 X-102.0707 Y46.9113 
G01 X-102.1014 Y46.7569 
G01 X-102.1617 Y46.6114 
G01 X-102.2491 Y46.4805 
G01 X-102.3605 Y46.3691 
G01 X-102.4914 Y46.2817 
G01 X-102.5152 Y38.7173 
G01 X-102.4171 Y38.6518 
G01 X-102.3182 Y38.5529 
G01 X-102.2527 Y38.4548 
G01 X-100.2833 Y38.4548 
G01 X-100.1930 Y38.4306 
G01 X-100.1121 Y38.3839 
G01 X-100.0461 Y38.3178 
G01 X-99.9994 Y38.2369 
G01 X-99.9752 Y38.1467 
G01 X-99.9752 Y36.1696 
G01 X-99.8812 Y36.1068 
G01 X-99.7832 Y36.0088 
G01 X-99.7061 Y35.8935 
G01 X-99.6531 Y35.7653 
G01 X-99.6260 Y35.6293 
G01 X-99.6260 Y35.4907 
G01 X-99.6531 Y35.3546 
G01 X-99.7061 Y35.2265 
G01 X-99.7832 Y35.1112 
G01 X-99.8812 Y35.0132 
G01 X-99.9965 Y34.9361 
G01 X-100.1247 Y34.8831 
G01 X-100.2607 Y34.8560 
G01 X-100.3993 Y34.8560 
G01 X-100.5353 Y34.8831 
G01 X-100.6635 Y34.9361 
G01 X-100.7788 Y35.0132 
G01 X-100.8768 Y35.1112 
G01 X-100.9539 Y35.2265 
G01 X-101.0069 Y35.3546 
G01 X-101.0340 Y35.4907 
G01 X-101.0340 Y35.6293 
G01 X-101.0069 Y35.7653 
G01 X-100.9539 Y35.8935 
G01 X-100.8768 Y36.0088 
G01 X-100.7788 Y36.1068 
G01 X-100.6848 Y36.1696 
G01 X-100.6848 Y37.7452 
G01 X-102.2527 Y37.7452 
G01 X-102.3182 Y37.6471 
G01 X-102.4171 Y37.5482 
G01 X-102.5335 Y37.4704 
G01 X-102.6628 Y37.4169 
G01 X-102.8000 Y37.3896 
G01 X-102.9400 Y37.3896 
G01 X-103.0772 Y37.4169 
G01 X-103.2065 Y37.4704 
G01 X-103.3229 Y37.5482 
G01 X-103.4218 Y37.6471 
G01 X-103.4995 Y37.7635 
G01 X-103.5531 Y37.8928 
G01 X-103.5804 Y38.0300 
G01 X-103.5804 Y38.1700 
G01 X-103.5531 Y38.3072 
G01 X-103.4995 Y38.4365 
G01 X-103.4218 Y38.5529 
G01 X-103.3229 Y38.6518 
G01 X-103.2248 Y38.7173 
G01 X-103.2248 Y46.2718 
G01 X-103.3795 Y46.3691 
G01 X-103.4909 Y46.4805 
G01 X-103.5783 Y46.6114 
G01 X-103.6386 Y46.7569 
G01 X-103.6693 Y46.9113 
G00 Z15.0000 
G00 X-108.7493 Y46.9113 
G01 Z0.0000  F1000  
G01 X-108.7493 Y47.0687 F400   
G01 X-108.7186 Y47.2231 
G01 X-108.6583 Y47.3686 
G01 X-108.5709 Y47.4995 
G01 X-108.4595 Y47.6109 
G01 X-108.3286 Y47.6983 
G01 X-108.3048 Y50.8467 
G01 X-108.2806 Y50.9369 
G01 X-108.2339 Y51.0179 
G01 X-108.1679 Y51.0839 
G01 X-108.0869 Y51.1306 
G01 X-107.9967 Y51.1548 
G01 X-84.1748 Y51.1548 
G01 X-84.1748 Y52.1167 
G01 X-84.1506 Y52.2069 
G01 X-84.1039 Y52.2879 
G01 X-84.0379 Y52.3539 
G01 X-83.9569 Y52.4006 
G01 X-83.8667 Y52.4248 
G01 X-77.8248 Y52.4248 
G01 X-77.8248 Y53.8918 
G01 X-77.9795 Y53.9891 
G01 X-78.0909 Y54.1005 
G01 X-78.1783 Y54.2314 
G01 X-78.2386 Y54.3769 
G01 X-78.2693 Y54.5313 
G01 X-78.2693 Y54.6887 
G01 X-78.2386 Y54.8431 
G01 X-78.1783 Y54.9886 
G01 X-78.0909 Y55.1195 
G01 X-77.9795 Y55.2309 
G01 X-77.8486 Y55.3183 
G01 X-77.7031 Y55.3786 
G01 X-77.5487 Y55.4093 
G01 X-77.3913 Y55.4093 
G01 X-77.2369 Y55.3786 
G01 X-77.0914 Y55.3183 
G01 X-76.9605 Y55.2309 
G01 X-76.8491 Y55.1195 
G01 X-76.7617 Y54.9886 
G01 X-64.0485 Y54.9648 
G01 X-64.0074 Y55.0264 
G01 X-63.9164 Y55.1174 
G01 X-63.8094 Y55.1889 
G01 X-63.6905 Y55.2381 
G01 X-63.5643 Y55.2632 
G01 X-63.4357 Y55.2632 
G01 X-63.3095 Y55.2381 
G01 X-63.1906 Y55.1889 
G01 X-63.0836 Y55.1174 
G01 X-62.9926 Y55.0264 
G01 X-62.9515 Y54.9648 
G01 X-46.0748 Y54.9648 
G01 X-46.0748 Y74.5752 
G01 X-63.1452 Y74.5752 
G01 X-63.1452 Y72.6139 
G01 X-62.9824 Y72.5127 
G01 X-62.8693 Y72.3996 
G01 X-62.7804 Y72.2666 
G01 X-62.7192 Y72.1189 
G01 X-62.6880 Y71.9620 
G01 X-62.6880 Y70.2780 
G01 X-62.7192 Y70.1211 
G01 X-62.7804 Y69.9734 
G01 X-62.8693 Y69.8404 
G01 X-62.9824 Y69.7273 
G01 X-63.1154 Y69.6384 
G01 X-63.2631 Y69.5772 
G01 X-63.4200 Y69.5460 
G01 X-63.5800 Y69.5460 
G01 X-63.7369 Y69.5772 
G01 X-63.8846 Y69.6384 
G01 X-64.0176 Y69.7273 
G01 X-64.1307 Y69.8404 
G01 X-64.2196 Y69.9734 
G01 X-64.2808 Y70.1211 
G01 X-64.3120 Y70.2780 
G01 X-64.3120 Y71.9620 
G01 X-64.2808 Y72.1189 
G01 X-64.2196 Y72.2666 
G01 X-64.1307 Y72.3996 
G01 X-64.0176 Y72.5127 
G01 X-63.8846 Y72.6016 
G01 X-63.8548 Y74.9767 
G01 X-63.8306 Y75.0669 
G01 X-63.7839 Y75.1479 
G01 X-63.7179 Y75.2139 
G01 X-63.6369 Y75.2606 
G01 X-63.5467 Y75.2848 
G01 X-45.6733 Y75.2848 
G01 X-45.5831 Y75.2606 
G01 X-45.5021 Y75.2139 
G01 X-45.4361 Y75.1479 
G01 X-45.3894 Y75.0669 
G01 X-45.3652 Y74.9767 
G01 X-45.3652 Y54.5633 
G01 X-45.3894 Y54.4731 
G01 X-45.4361 Y54.3921 
G01 X-45.5021 Y54.3261 
G01 X-45.5831 Y54.2794 
G01 X-45.6733 Y54.2552 
G01 X-62.9515 Y54.2552 
G01 X-62.9926 Y54.1936 
G01 X-63.0836 Y54.1026 
G01 X-63.1906 Y54.0311 
G01 X-63.3095 Y53.9819 
G01 X-63.4357 Y53.9568 
G01 X-63.5643 Y53.9568 
G01 X-63.6905 Y53.9819 
G01 X-63.8094 Y54.0311 
G01 X-63.9164 Y54.1026 
G01 X-64.0074 Y54.1936 
G01 X-64.0485 Y54.2552 
G01 X-76.7518 Y54.2552 
G01 X-76.8491 Y54.1005 
G01 X-76.9605 Y53.9891 
G01 X-77.0914 Y53.9017 
G01 X-77.1152 Y52.0233 
G01 X-77.1394 Y51.9331 
G01 X-77.1861 Y51.8521 
G01 X-77.2521 Y51.7861 
G01 X-77.3331 Y51.7394 
G01 X-77.4233 Y51.7152 
G01 X-83.4652 Y51.7152 
G01 X-83.4652 Y50.7533 
G01 X-83.4894 Y50.6631 
G01 X-83.5361 Y50.5821 
G01 X-83.6021 Y50.5161 
G01 X-83.6831 Y50.4694 
G01 X-83.7733 Y50.4452 
G01 X-107.5952 Y50.4452 
G01 X-107.5952 Y47.7082 
G01 X-107.4405 Y47.6109 
G01 X-107.3291 Y47.4995 
G01 X-107.2417 Y47.3686 
G01 X-107.1814 Y47.2231 
G01 X-107.1507 Y47.0687 
G01 X-107.1507 Y46.9113 
G01 X-107.1814 Y46.7569 
G01 X-107.2417 Y46.6114 
G01 X-107.3291 Y46.4805 
G01 X-107.4405 Y46.3691 
G01 X-107.5714 Y46.2817 
G01 X-107.7169 Y46.2214 
G01 X-107.8713 Y46.1907 
G01 X-108.0287 Y46.1907 
G01 X-108.1831 Y46.2214 
G01 X-108.3286 Y46.2817 
G01 X-108.4595 Y46.3691 
G01 X-108.5709 Y46.4805 
G01 X-108.6583 Y46.6114 
G01 X-108.7186 Y46.7569 
G01 X-108.7493 Y46.9113 
G00 Z15.0000 
G00 X-111.2893 Y54.5313 
G01 Z0.0000  F1000  
G01 X-111.2893 Y54.6887 F400   
G01 X-111.2586 Y54.8431 
G01 X-111.1983 Y54.9886 
G01 X-111.1109 Y55.1195 
G01 X-110.9995 Y55.2309 
G01 X-110.8686 Y55.3183 
G01 X-110.8448 Y56.7952 
G01 X-112.6752 Y56.7952 
G01 X-112.6752 Y23.2148 
G01 X-100.2833 Y23.2148 
G01 X-100.1930 Y23.1906 
G01 X-100.1121 Y23.1439 
G01 X-100.0461 Y23.0779 
G01 X-99.9994 Y22.9969 
G01 X-99.9752 Y22.9067 
G01 X-99.9752 Y11.6539 
G01 X-99.8124 Y11.5527 
G01 X-99.6993 Y11.4396 
G01 X-99.6104 Y11.3066 
G01 X-99.5492 Y11.1589 
G01 X-99.5180 Y11.0020 
G01 X-99.5180 Y9.3180  
G01 X-99.5492 Y9.1611  
G01 X-99.6104 Y9.0134  
G01 X-99.6993 Y8.8804  
G01 X-99.8124 Y8.7673  
G01 X-99.9454 Y8.6784  
G01 X-100.0931 Y8.6172  
G01 X-100.2500 Y8.5860  
G01 X-100.4100 Y8.5860  
G01 X-100.5669 Y8.6172  
G01 X-100.7146 Y8.6784  
G01 X-100.8476 Y8.7673  
G01 X-100.9607 Y8.8804  
G01 X-101.0496 Y9.0134  
G01 X-101.1108 Y9.1611  
G01 X-101.1420 Y9.3180  
G01 X-101.1420 Y11.0020 
G01 X-101.1108 Y11.1589 
G01 X-101.0496 Y11.3066 
G01 X-100.9607 Y11.4396 
G01 X-100.8476 Y11.5527 
G01 X-100.7146 Y11.6416 
G01 X-100.6848 Y22.5052 
G01 X-113.0767 Y22.5052 
G01 X-113.1669 Y22.5294 
G01 X-113.2478 Y22.5761 
G01 X-113.3139 Y22.6421 
G01 X-113.3606 Y22.7231 
G01 X-113.3848 Y22.8133 
G01 X-113.3848 Y57.1967 
G01 X-113.3606 Y57.2869 
G01 X-113.3139 Y57.3679 
G01 X-113.2478 Y57.4339 
G01 X-113.1669 Y57.4806 
G01 X-113.0767 Y57.5048 
G01 X-110.4433 Y57.5048 
G01 X-110.3531 Y57.4806 
G01 X-110.2721 Y57.4339 
G01 X-110.2061 Y57.3679 
G01 X-110.1594 Y57.2869 
G01 X-110.1352 Y57.1967 
G01 X-110.1352 Y55.3282 
G01 X-109.9805 Y55.2309 
G01 X-109.8691 Y55.1195 
G01 X-109.7817 Y54.9886 
G01 X-109.7214 Y54.8431 
G01 X-109.6907 Y54.6887 
G01 X-109.6907 Y54.5313 
G01 X-109.7214 Y54.3769 
G01 X-109.7817 Y54.2314 
G01 X-109.8691 Y54.1005 
G01 X-109.9805 Y53.9891 
G01 X-110.1114 Y53.9017 
G01 X-110.2569 Y53.8414 
G01 X-110.4113 Y53.8107 
G01 X-110.5687 Y53.8107 
G01 X-110.7231 Y53.8414 
G01 X-110.8686 Y53.9017 
G01 X-110.9995 Y53.9891 
G01 X-111.1109 Y54.1005 
G01 X-111.1983 Y54.2314 
G01 X-111.2586 Y54.3769 
G01 X-111.2893 Y54.5313 
G00 Z15.0000 
G00 X-106.2093 Y54.5313 
G01 Z0.0000  F1000  
G01 X-106.2093 Y54.6887 F400   
G01 X-106.1786 Y54.8431 
G01 X-106.1183 Y54.9886 
G01 X-106.0309 Y55.1195 
G01 X-105.9195 Y55.2309 
G01 X-105.7886 Y55.3183 
G01 X-105.7648 Y59.3352 
G01 X-115.2152 Y59.3352 
G01 X-115.2152 Y20.6748 
G01 X-105.3633 Y20.6748 
G01 X-105.2731 Y20.6506 
G01 X-105.1921 Y20.6039 
G01 X-105.1261 Y20.5379 
G01 X-105.0794 Y20.4569 
G01 X-105.0552 Y20.3667 
G01 X-105.0552 Y11.6539 
G01 X-104.8924 Y11.5527 
G01 X-104.7793 Y11.4396 
G01 X-104.6904 Y11.3066 
G01 X-104.6292 Y11.1589 
G01 X-104.5980 Y11.0020 
G01 X-104.5980 Y9.3180  
G01 X-104.6292 Y9.1611  
G01 X-104.6904 Y9.0134  
G01 X-104.7793 Y8.8804  
G01 X-104.8924 Y8.7673  
G01 X-105.0254 Y8.6784  
G01 X-105.1731 Y8.6172  
G01 X-105.3300 Y8.5860  
G01 X-105.4900 Y8.5860  
G01 X-105.6469 Y8.6172  
G01 X-105.7946 Y8.6784  
G01 X-105.9276 Y8.7673  
G01 X-106.0407 Y8.8804  
G01 X-106.1296 Y9.0134  
G01 X-106.1908 Y9.1611  
G01 X-106.2220 Y9.3180  
G01 X-106.2220 Y11.0020 
G01 X-106.1908 Y11.1589 
G01 X-106.1296 Y11.3066 
G01 X-106.0407 Y11.4396 
G01 X-105.9276 Y11.5527 
G01 X-105.7946 Y11.6416 
G01 X-105.7648 Y19.9652 
G01 X-115.6167 Y19.9652 
G01 X-115.7069 Y19.9894 
G01 X-115.7879 Y20.0361 
G01 X-115.8539 Y20.1021 
G01 X-115.9006 Y20.1831 
G01 X-115.9248 Y20.2733 
G01 X-115.9248 Y59.7367 
G01 X-115.9006 Y59.8269 
G01 X-115.8539 Y59.9079 
G01 X-115.7879 Y59.9739 
G01 X-115.7069 Y60.0206 
G01 X-115.6167 Y60.0448 
G01 X-105.3633 Y60.0448 
G01 X-105.2731 Y60.0206 
G01 X-105.1921 Y59.9739 
G01 X-105.1261 Y59.9079 
G01 X-105.0794 Y59.8269 
G01 X-105.0552 Y59.7367 
G01 X-105.0552 Y55.3282 
G01 X-104.9005 Y55.2309 
G01 X-104.7891 Y55.1195 
G01 X-104.7017 Y54.9886 
G01 X-104.6414 Y54.8431 
G01 X-104.6107 Y54.6887 
G01 X-104.6107 Y54.5313 
G01 X-104.6414 Y54.3769 
G01 X-104.7017 Y54.2314 
G01 X-104.7891 Y54.1005 
G01 X-104.9005 Y53.9891 
G01 X-105.0314 Y53.9017 
G01 X-105.1769 Y53.8414 
G01 X-105.3313 Y53.8107 
G01 X-105.4887 Y53.8107 
G01 X-105.6431 Y53.8414 
G01 X-105.7886 Y53.9017 
G01 X-105.9195 Y53.9891 
G01 X-106.0309 Y54.1005 
G01 X-106.1183 Y54.2314 
G01 X-106.1786 Y54.3769 
G01 X-106.2093 Y54.5313 
G00 Z15.0000 
G00 X-96.0493 Y54.5313 
G01 Z0.0000  F1000  
G01 X-96.0493 Y54.6887 F400   
G01 X-96.0186 Y54.8431 
G01 X-95.9583 Y54.9886 
G01 X-95.8709 Y55.1195 
G01 X-95.7595 Y55.2309 
G01 X-95.6286 Y55.3183 
G01 X-95.6048 Y64.4152 
G01 X-120.2952 Y64.4152 
G01 X-120.2952 Y15.5948 
G01 X-112.9833 Y15.5948 
G01 X-112.8931 Y15.5706 
G01 X-112.8121 Y15.5239 
G01 X-112.7461 Y15.4579 
G01 X-112.6994 Y15.3769 
G01 X-112.6752 Y15.2867 
G01 X-112.6752 Y11.6539 
G01 X-112.5124 Y11.5527 
G01 X-112.3993 Y11.4396 
G01 X-112.3104 Y11.3066 
G01 X-112.2492 Y11.1589 
G01 X-112.2180 Y11.0020 
G01 X-112.2180 Y9.3180  
G01 X-112.2492 Y9.1611  
G01 X-112.3104 Y9.0134  
G01 X-112.3993 Y8.8804  
G01 X-112.5124 Y8.7673  
G01 X-112.6454 Y8.6784  
G01 X-112.7931 Y8.6172  
G01 X-112.9500 Y8.5860  
G01 X-113.1100 Y8.5860  
G01 X-113.2669 Y8.6172  
G01 X-113.4146 Y8.6784  
G01 X-113.5476 Y8.7673  
G01 X-113.6607 Y8.8804  
G01 X-113.7496 Y9.0134  
G01 X-113.8108 Y9.1611  
G01 X-113.8420 Y9.3180  
G01 X-113.8420 Y11.0020 
G01 X-113.8108 Y11.1589 
G01 X-113.7496 Y11.3066 
G01 X-113.6607 Y11.4396 
G01 X-113.5476 Y11.5527 
G01 X-113.4146 Y11.6416 
G01 X-113.3848 Y14.8852 
G01 X-120.6967 Y14.8852 
G01 X-120.7869 Y14.9094 
G01 X-120.8679 Y14.9561 
G01 X-120.9339 Y15.0221 
G01 X-120.9806 Y15.1031 
G01 X-121.0048 Y15.1933 
G01 X-121.0048 Y64.8167 
G01 X-120.9806 Y64.9069 
G01 X-120.9339 Y64.9879 
G01 X-120.8679 Y65.0539 
G01 X-120.7869 Y65.1006 
G01 X-120.6967 Y65.1248 
G01 X-95.2033 Y65.1248 
G01 X-95.1131 Y65.1006 
G01 X-95.0321 Y65.0539 
G01 X-94.9661 Y64.9879 
G01 X-94.9194 Y64.9069 
G01 X-94.8952 Y64.8167 
G01 X-94.8952 Y55.3282 
G01 X-94.7405 Y55.2309 
G01 X-94.6291 Y55.1195 
G01 X-94.5417 Y54.9886 
G01 X-94.4814 Y54.8431 
G01 X-94.4507 Y54.6887 
G01 X-94.4507 Y54.5313 
G01 X-94.4814 Y54.3769 
G01 X-94.5417 Y54.2314 
G01 X-94.6291 Y54.1005 
G01 X-94.7405 Y53.9891 
G01 X-94.8714 Y53.9017 
G01 X-95.0169 Y53.8414 
G01 X-95.1713 Y53.8107 
G01 X-95.3287 Y53.8107 
G01 X-95.4831 Y53.8414 
G01 X-95.6286 Y53.9017 
G01 X-95.7595 Y53.9891 
G01 X-95.8709 Y54.1005 
G01 X-95.9583 Y54.2314 
G01 X-96.0186 Y54.3769 
G01 X-96.0493 Y54.5313 
G00 Z15.0000 
G00 X-90.9693 Y54.5313 
G01 Z0.0000  F1000  
G01 X-90.9693 Y54.6887 F400   
G01 X-90.9386 Y54.8431 
G01 X-90.8783 Y54.9886 
G01 X-90.7909 Y55.1195 
G01 X-90.6795 Y55.2309 
G01 X-90.5486 Y55.3183 
G01 X-90.5248 Y63.5467 
G01 X-90.5006 Y63.6369 
G01 X-90.4539 Y63.7179 
G01 X-90.3879 Y63.7839 
G01 X-90.3069 Y63.8306 
G01 X-90.2167 Y63.8548 
G01 X-56.2348 Y63.8548 
G01 X-56.2348 Y69.6261 
G01 X-56.3976 Y69.7273 
G01 X-56.5107 Y69.8404 
G01 X-56.5996 Y69.9734 
G01 X-56.6608 Y70.1211 
G01 X-56.6920 Y70.2780 
G01 X-56.6920 Y71.9620 
G01 X-56.6608 Y72.1189 
G01 X-56.5996 Y72.2666 
G01 X-56.5107 Y72.3996 
G01 X-56.3976 Y72.5127 
G01 X-56.2646 Y72.6016 
G01 X-56.1168 Y72.6628 
G01 X-55.9600 Y72.6940 
G01 X-55.8000 Y72.6940 
G01 X-55.6431 Y72.6628 
G01 X-55.4954 Y72.6016 
G01 X-55.3624 Y72.5127 
G01 X-55.2493 Y72.3996 
G01 X-55.1604 Y72.2666 
G01 X-55.0992 Y72.1189 
G01 X-55.0680 Y71.9620 
G01 X-55.0680 Y70.2780 
G01 X-55.0992 Y70.1211 
G01 X-55.1604 Y69.9734 
G01 X-55.2493 Y69.8404 
G01 X-55.3624 Y69.7273 
G01 X-55.4954 Y69.6384 
G01 X-55.5252 Y63.4533 
G01 X-55.5494 Y63.3631 
G01 X-55.5961 Y63.2821 
G01 X-55.6621 Y63.2161 
G01 X-55.7431 Y63.1694 
G01 X-55.8333 Y63.1452 
G01 X-89.8152 Y63.1452 
G01 X-89.8152 Y55.3282 
G01 X-89.6605 Y55.2309 
G01 X-89.5491 Y55.1195 
G01 X-89.4617 Y54.9886 
G01 X-89.4014 Y54.8431 
G01 X-89.3707 Y54.6887 
G01 X-89.3707 Y54.5313 
G01 X-89.4014 Y54.3769 
G01 X-89.4617 Y54.2314 
G01 X-89.5491 Y54.1005 
G01 X-89.6605 Y53.9891 
G01 X-89.7914 Y53.9017 
G01 X-89.9369 Y53.8414 
G01 X-90.0913 Y53.8107 
G01 X-90.2487 Y53.8107 
G01 X-90.4031 Y53.8414 
G01 X-90.5486 Y53.9017 
G01 X-90.6795 Y53.9891 
G01 X-90.7909 Y54.1005 
G01 X-90.8783 Y54.2314 
G01 X-90.9386 Y54.3769 
G01 X-90.9693 Y54.5313 
G00 Z15.0000 
G00 X-88.4293 Y54.5313 
G01 Z0.0000  F1000  
G01 X-88.4293 Y54.6887 F400   
G01 X-88.3986 Y54.8431 
G01 X-88.3383 Y54.9886 
G01 X-88.2509 Y55.1195 
G01 X-88.1395 Y55.2309 
G01 X-88.0086 Y55.3183 
G01 X-87.8631 Y55.3786 
G01 X-87.7087 Y55.4093 
G01 X-87.5513 Y55.4093 
G01 X-87.3969 Y55.3786 
G01 X-87.2514 Y55.3183 
G01 X-87.1205 Y55.2309 
G01 X-87.0091 Y55.1195 
G01 X-86.9217 Y54.9886 
G01 X-86.8614 Y54.8431 
G01 X-86.8307 Y54.6887 
G01 X-86.8307 Y54.5313 
G01 X-86.8614 Y54.3769 
G01 X-86.9217 Y54.2314 
G01 X-87.0091 Y54.1005 
G01 X-87.1205 Y53.9891 
G01 X-87.2514 Y53.9017 
G01 X-87.2752 Y53.2933 
G01 X-87.2994 Y53.2031 
G01 X-87.3461 Y53.1221 
G01 X-87.4121 Y53.0561 
G01 X-87.4931 Y53.0094 
G01 X-87.5833 Y52.9852 
G01 X-91.4867 Y52.9852 
G01 X-91.5769 Y53.0094 
G01 X-91.6579 Y53.0561 
G01 X-91.7239 Y53.1221 
G01 X-91.7706 Y53.2031 
G01 X-91.7948 Y53.2933 
G01 X-91.7948 Y64.8167 
G01 X-91.7706 Y64.9069 
G01 X-91.7239 Y64.9879 
G01 X-91.6579 Y65.0539 
G01 X-91.5769 Y65.1006 
G01 X-91.4867 Y65.1248 
G01 X-58.7748 Y65.1248 
G01 X-58.7748 Y69.6261 
G01 X-58.9376 Y69.7273 
G01 X-59.0507 Y69.8404 
G01 X-59.1396 Y69.9734 
G01 X-59.2008 Y70.1211 
G01 X-59.2320 Y70.2780 
G01 X-59.2320 Y71.9620 
G01 X-59.2008 Y72.1189 
G01 X-59.1396 Y72.2666 
G01 X-59.0507 Y72.3996 
G01 X-58.9376 Y72.5127 
G01 X-58.8046 Y72.6016 
G01 X-58.6569 Y72.6628 
G01 X-58.5000 Y72.6940 
G01 X-58.3400 Y72.6940 
G01 X-58.1831 Y72.6628 
G01 X-58.0354 Y72.6016 
G01 X-57.9024 Y72.5127 
G01 X-57.7893 Y72.3996 
G01 X-57.7004 Y72.2666 
G01 X-57.6392 Y72.1189 
G01 X-57.6080 Y71.9620 
G01 X-57.6080 Y70.2780 
G01 X-57.6392 Y70.1211 
G01 X-57.7004 Y69.9734 
G01 X-57.7893 Y69.8404 
G01 X-57.9024 Y69.7273 
G01 X-58.0354 Y69.6384 
G01 X-58.0652 Y64.7233 
G01 X-58.0894 Y64.6330 
G01 X-58.1361 Y64.5521 
G01 X-58.2021 Y64.4861 
G01 X-58.2831 Y64.4394 
G01 X-58.3733 Y64.4152 
G01 X-91.0852 Y64.4152 
G01 X-91.0852 Y53.6948 
G01 X-87.9848 Y53.6948 
G01 X-87.9848 Y53.8918 
G01 X-88.1395 Y53.9891 
G01 X-88.2509 Y54.1005 
G01 X-88.3383 Y54.2314 
G01 X-88.3986 Y54.3769 
G01 X-88.4293 Y54.5313 
G00 Z15.0000 
G00 X-83.3493 Y54.5313 
G01 Z0.0000  F1000  
G01 X-83.3493 Y54.6887 F400   
G01 X-83.3186 Y54.8431 
G01 X-83.2583 Y54.9886 
G01 X-83.1709 Y55.1195 
G01 X-83.0595 Y55.2309 
G01 X-82.9286 Y55.3183 
G01 X-82.9048 Y61.0067 
G01 X-82.8806 Y61.0969 
G01 X-82.8339 Y61.1778 
G01 X-82.7679 Y61.2439 
G01 X-82.6869 Y61.2906 
G01 X-82.5967 Y61.3148 
G01 X-51.1548 Y61.3148 
G01 X-51.1548 Y69.6261 
G01 X-51.3176 Y69.7273 
G01 X-51.4307 Y69.8404 
G01 X-51.5196 Y69.9734 
G01 X-51.5808 Y70.1211 
G01 X-51.6120 Y70.2780 
G01 X-51.6120 Y71.9620 
G01 X-51.5808 Y72.1189 
G01 X-51.5196 Y72.2666 
G01 X-51.4307 Y72.3996 
G01 X-51.3176 Y72.5127 
G01 X-51.1846 Y72.6016 
G01 X-51.0369 Y72.6628 
G01 X-50.8800 Y72.6940 
G01 X-50.7200 Y72.6940 
G01 X-50.5631 Y72.6628 
G01 X-50.4154 Y72.6016 
G01 X-50.2824 Y72.5127 
G01 X-50.1693 Y72.3996 
G01 X-50.0804 Y72.2666 
G01 X-50.0192 Y72.1189 
G01 X-49.9880 Y71.9620 
G01 X-49.9880 Y70.2780 
G01 X-50.0192 Y70.1211 
G01 X-50.0804 Y69.9734 
G01 X-50.1693 Y69.8404 
G01 X-50.2824 Y69.7273 
G01 X-50.4154 Y69.6384 
G01 X-50.4452 Y60.9133 
G01 X-50.4694 Y60.8231 
G01 X-50.5161 Y60.7421 
G01 X-50.5821 Y60.6761 
G01 X-50.6631 Y60.6294 
G01 X-50.7533 Y60.6052 
G01 X-82.1952 Y60.6052 
G01 X-82.1952 Y55.3282 
G01 X-82.0405 Y55.2309 
G01 X-81.9291 Y55.1195 
G01 X-81.8417 Y54.9886 
G01 X-81.7814 Y54.8431 
G01 X-81.7507 Y54.6887 
G01 X-81.7507 Y54.5313 
G01 X-81.7814 Y54.3769 
G01 X-81.8417 Y54.2314 
G01 X-81.9291 Y54.1005 
G01 X-82.0405 Y53.9891 
G01 X-82.1714 Y53.9017 
G01 X-82.3169 Y53.8414 
G01 X-82.4713 Y53.8107 
G01 X-82.6287 Y53.8107 
G01 X-82.7831 Y53.8414 
G01 X-82.9286 Y53.9017 
G01 X-83.0595 Y53.9891 
G01 X-83.1709 Y54.1005 
G01 X-83.2583 Y54.2314 
G01 X-83.3186 Y54.3769 
G01 X-83.3493 Y54.5313 
G00 Z15.0000 
G00 X-64.4859 Y4.4950  
G01 Z0.0000  F1000  
G01 X-62.5141 Y4.4950  F400   
G01 X-62.4848 Y4.4657  
G01 X-62.4848 Y0.6143  
G01 X-64.4859 Y0.5850  
G01 X-64.5152 Y4.4657  
G00 Z15.0000 
G00 X-59.4059 Y4.4950  
G01 Z0.0000  F1000  
G01 X-57.4341 Y4.4950  F400   
G01 X-57.4048 Y4.4657  
G01 X-57.4048 Y0.6143  
G01 X-59.4059 Y0.5850  
G01 X-59.4352 Y4.4657  
G00 Z15.0000 
G00 X-56.8659 Y4.4950  
G01 Z0.0000  F1000  
G01 X-54.8941 Y4.4950  F400   
G01 X-54.8648 Y4.4657  
G01 X-54.8648 Y0.6143  
G01 X-56.8659 Y0.5850  
G01 X-56.8952 Y4.4657  
G00 Z15.0000 
G00 X-51.7859 Y4.4950  
G01 Z0.0000  F1000  
G01 X-49.8141 Y4.4950  F400   
G01 X-49.7848 Y4.4657  
G01 X-49.7848 Y0.6143  
G01 X-51.7859 Y0.5850  
G01 X-51.8152 Y4.4657  
G00 Z15.0000 
G00 X-49.2459 Y4.4950  
G01 Z0.0000  F1000  
G01 X-47.2741 Y4.4950  F400   
G01 X-47.2448 Y4.4657  
G01 X-47.2448 Y0.6143  
G01 X-49.2459 Y0.5850  
G01 X-49.2752 Y4.4657  
G00 Z15.0000 
G00 X-46.7059 Y4.4950  
G01 Z0.0000  F1000  
G01 X-44.7341 Y4.4950  F400   
G01 X-44.7048 Y4.4657  
G01 X-44.7048 Y0.6143  
G01 X-46.7059 Y0.5850  
G01 X-46.7352 Y4.4657  
G00 Z15.0000 
G00 X-44.1659 Y4.4950  
G01 Z0.0000  F1000  
G01 X-42.1941 Y4.4950  F400   
G01 X-42.1648 Y4.4657  
G01 X-42.1648 Y0.6143  
G01 X-44.1659 Y0.5850  
G01 X-44.1952 Y4.4657  
G00 Z15.0000 
G00 X-41.6259 Y4.4950  
G01 Z0.0000  F1000  
G01 X-39.6541 Y4.4950  F400   
G01 X-39.6248 Y4.4657  
G01 X-39.6248 Y0.6143  
G01 X-41.6259 Y0.5850  
G01 X-41.6552 Y4.4657  
G00 Z15.0000 
G00 X-69.5659 Y4.4950  
G01 Z0.0000  F1000  
G01 X-68.9348 Y4.4950  F400   
G01 X-68.9348 Y5.8015  
G01 X-68.9964 Y5.8426  
G01 X-69.0874 Y5.9336  
G01 X-69.1589 Y6.0406  
G01 X-69.2081 Y6.1595  
G01 X-69.2332 Y6.2857  
G01 X-69.2332 Y6.4143  
G01 X-69.2081 Y6.5405  
G01 X-69.1589 Y6.6594  
G01 X-69.0874 Y6.7664  
G01 X-68.9964 Y6.8574  
G01 X-68.9348 Y6.8985  
G01 X-68.9348 Y8.4336  
G01 X-69.0110 Y8.4629  
G01 X-69.0110 Y10.7395 
G01 X-67.7211 Y10.7688 
G01 X-67.6918 Y8.4629  
G01 X-68.2252 Y8.4336  
G01 X-68.2252 Y6.8985  
G01 X-68.1636 Y6.8574  
G01 X-68.0726 Y6.7664  
G01 X-68.0011 Y6.6594  
G01 X-67.9519 Y6.5405  
G01 X-67.9268 Y6.4143  
G01 X-67.9268 Y6.2857  
G01 X-67.9519 Y6.1595  
G01 X-68.0011 Y6.0406  
G01 X-68.0726 Y5.9336  
G01 X-68.1636 Y5.8426  
G01 X-68.2252 Y5.8015  
G01 X-68.2252 Y4.4950  
G01 X-67.5941 Y4.4950  
G01 X-67.5648 Y0.6143  
G01 X-69.5659 Y0.5850  
G01 X-69.5952 Y4.4657  
G00 Z15.0000 
G00 X-72.1059 Y4.4950  
G01 Z0.0000  F1000  
G01 X-71.4748 Y4.4950  F400   
G01 X-71.4748 Y16.5567 
G01 X-71.4506 Y16.6469 
G01 X-71.4039 Y16.7279 
G01 X-71.3379 Y16.7939 
G01 X-71.2569 Y16.8406 
G01 X-71.1667 Y16.8648 
G01 X-70.2048 Y16.8648 
G01 X-70.2048 Y27.5852 
G01 X-82.5967 Y27.5852 
G01 X-82.6869 Y27.6094 
G01 X-82.7679 Y27.6561 
G01 X-82.8339 Y27.7221 
G01 X-82.8806 Y27.8031 
G01 X-82.9048 Y27.8933 
G01 X-82.9048 Y46.2718 
G01 X-83.0595 Y46.3691 
G01 X-83.1709 Y46.4805 
G01 X-83.2583 Y46.6114 
G01 X-83.3186 Y46.7569 
G01 X-83.3493 Y46.9113 
G01 X-83.3493 Y47.0687 
G01 X-83.3186 Y47.2231 
G01 X-83.2583 Y47.3686 
G01 X-83.1709 Y47.4995 
G01 X-83.0595 Y47.6109 
G01 X-82.9286 Y47.6983 
G01 X-82.7831 Y47.7586 
G01 X-82.6287 Y47.7893 
G01 X-82.4713 Y47.7893 
G01 X-82.3169 Y47.7586 
G01 X-82.1714 Y47.6983 
G01 X-82.0405 Y47.6109 
G01 X-81.9291 Y47.4995 
G01 X-81.8417 Y47.3686 
G01 X-81.7814 Y47.2231 
G01 X-81.7507 Y47.0687 
G01 X-81.7507 Y46.9113 
G01 X-81.7814 Y46.7569 
G01 X-81.8417 Y46.6114 
G01 X-81.9291 Y46.4805 
G01 X-82.0405 Y46.3691 
G01 X-82.1714 Y46.2817 
G01 X-82.1952 Y28.2948 
G01 X-69.8033 Y28.2948 
G01 X-69.7131 Y28.2706 
G01 X-69.6321 Y28.2239 
G01 X-69.5661 Y28.1578 
G01 X-69.5194 Y28.0769 
G01 X-69.4952 Y27.9867 
G01 X-69.4952 Y16.4633 
G01 X-69.5194 Y16.3730 
G01 X-69.5661 Y16.2921 
G01 X-69.6321 Y16.2261 
G01 X-69.7131 Y16.1794 
G01 X-69.8033 Y16.1552 
G01 X-70.7652 Y16.1552 
G01 X-70.7652 Y4.4950  
G01 X-70.1341 Y4.4950  
G01 X-70.1048 Y0.6143  
G01 X-72.1059 Y0.5850  
G01 X-72.1352 Y4.4657  
G00 Z15.0000 
G00 X-77.1859 Y4.4950  
G01 Z0.0000  F1000  
G01 X-76.5548 Y4.4950  F400   
G01 X-76.5548 Y18.6952 
G01 X-92.7567 Y18.6952 
G01 X-92.8469 Y18.7194 
G01 X-92.9279 Y18.7661 
G01 X-92.9939 Y18.8321 
G01 X-93.0406 Y18.9131 
G01 X-93.0648 Y19.0033 
G01 X-93.0648 Y46.2718 
G01 X-93.2195 Y46.3691 
G01 X-93.3309 Y46.4805 
G01 X-93.4183 Y46.6114 
G01 X-93.4786 Y46.7569 
G01 X-93.5093 Y46.9113 
G01 X-93.5093 Y47.0687 
G01 X-93.4786 Y47.2231 
G01 X-93.4183 Y47.3686 
G01 X-93.3309 Y47.4995 
G01 X-93.2195 Y47.6109 
G01 X-93.0886 Y47.6983 
G01 X-92.9431 Y47.7586 
G01 X-92.7887 Y47.7893 
G01 X-92.6313 Y47.7893 
G01 X-92.4768 Y47.7586 
G01 X-92.3314 Y47.6983 
G01 X-92.2005 Y47.6109 
G01 X-92.0891 Y47.4995 
G01 X-92.0017 Y47.3686 
G01 X-91.9414 Y47.2231 
G01 X-91.9107 Y47.0687 
G01 X-91.9107 Y46.9113 
G01 X-91.9414 Y46.7569 
G01 X-92.0017 Y46.6114 
G01 X-92.0891 Y46.4805 
G01 X-92.2005 Y46.3691 
G01 X-92.3314 Y46.2817 
G01 X-92.3552 Y19.4048 
G01 X-76.1533 Y19.4048 
G01 X-76.0631 Y19.3806 
G01 X-75.9821 Y19.3339 
G01 X-75.9161 Y19.2678 
G01 X-75.8694 Y19.1869 
G01 X-75.8452 Y19.0967 
G01 X-75.8452 Y4.4950  
G01 X-75.2141 Y4.4950  
G01 X-75.1848 Y0.6143  
G01 X-77.1859 Y0.5850  
G01 X-77.2152 Y4.4657  
G00 Z15.0000 
G00 X-79.7259 Y4.4950  
G01 Z0.0000  F1000  
G01 X-77.7541 Y4.4950  F400   
G01 X-77.7248 Y4.4657  
G01 X-77.7248 Y0.6143  
G01 X-79.7259 Y0.5850  
G01 X-79.7552 Y4.4657  
G00 Z15.0000 
G00 X-82.2659 Y4.4950  
G01 Z0.0000  F1000  
G01 X-80.2941 Y4.4950  F400   
G01 X-80.2648 Y4.4657  
G01 X-80.2648 Y0.6143  
G01 X-82.2659 Y0.5850  
G01 X-82.2952 Y4.4657  
G00 Z15.0000 
G00 X-75.3880 Y23.7020 
G01 Z0.0000  F1000  
G01 X-75.3880 Y22.0180 F400   
G01 X-75.4192 Y21.8611 
G01 X-75.4804 Y21.7134 
G01 X-75.5693 Y21.5804 
G01 X-75.6824 Y21.4673 
G01 X-75.8154 Y21.3784 
G01 X-75.9631 Y21.3172 
G01 X-76.1200 Y21.2860 
G01 X-76.2800 Y21.2860 
G01 X-76.4369 Y21.3172 
G01 X-76.5846 Y21.3784 
G01 X-76.7176 Y21.4673 
G01 X-76.8307 Y21.5804 
G01 X-76.9196 Y21.7134 
G01 X-76.9808 Y21.8611 
G01 X-77.0120 Y22.0180 
G01 X-77.0120 Y23.7020 
G01 X-76.9808 Y23.8589 
G01 X-76.9196 Y24.0066 
G01 X-76.8307 Y24.1396 
G01 X-76.7176 Y24.2527 
G01 X-76.5846 Y24.3416 
G01 X-76.4369 Y24.4028 
G01 X-76.2800 Y24.4340 
G01 X-76.1200 Y24.4340 
G01 X-75.9631 Y24.4028 
G01 X-75.8154 Y24.3416 
G01 X-75.6824 Y24.2527 
G01 X-75.5693 Y24.1396 
G01 X-75.4804 Y24.0066 
G01 X-75.4192 Y23.8589 
G01 X-75.3880 Y23.7020 
G00 Z15.0000 
G00 X-26.2882 Y64.6825 
G01 Z0.0000  F1000  
G01 X-26.2882 Y64.8575 F400   
G01 X-26.2541 Y65.0291 
G01 X-26.1871 Y65.1907 
G01 X-26.0899 Y65.3362 
G01 X-25.9662 Y65.4599 
G01 X-25.8207 Y65.5571 
G01 X-25.6591 Y65.6241 
G01 X-25.4875 Y65.6582 
G01 X-25.3125 Y65.6582 
G01 X-25.1409 Y65.6241 
G01 X-24.9793 Y65.5571 
G01 X-24.8338 Y65.4599 
G01 X-24.7101 Y65.3362 
G01 X-24.6129 Y65.1907 
G01 X-24.5459 Y65.0291 
G01 X-24.5118 Y64.8575 
G01 X-24.5118 Y64.6825 
G01 X-24.5459 Y64.5109 
G01 X-24.6129 Y64.3493 
G01 X-24.7101 Y64.2038 
G01 X-24.8338 Y64.0801 
G01 X-24.9793 Y63.9829 
G01 X-25.0452 Y63.9556 
G01 X-25.0452 Y62.5848 
G01 X-10.7544 Y62.5848 
G01 X-10.9112 Y62.7345 
G01 X-11.0199 Y62.8842 
G01 X-11.1039 Y63.0490 
G01 X-11.1611 Y63.2249 
G01 X-11.1900 Y63.4075 
G01 X-11.1900 Y63.5925 
G01 X-11.1611 Y63.7751 
G01 X-11.1039 Y63.9510 
G01 X-11.0199 Y64.1158 
G01 X-10.9112 Y64.2655 
G01 X-10.7805 Y64.3962 
G01 X-10.6308 Y64.5049 
G01 X-10.4660 Y64.5889 
G01 X-10.2901 Y64.6461 
G01 X-10.1075 Y64.6750 
G01 X-7.6725 Y64.6750 
G01 X-7.4899 Y64.6461 
G01 X-7.3140 Y64.5889 
G01 X-7.1492 Y64.5049 
G01 X-6.9995 Y64.3962 
G01 X-6.8688 Y64.2655 
G01 X-6.7601 Y64.1158 
G01 X-6.6761 Y63.9510 
G01 X-6.6189 Y63.7751 
G01 X-6.5900 Y63.5925 
G01 X-6.5900 Y63.4075 
G01 X-6.6189 Y63.2249 
G01 X-6.6761 Y63.0490 
G01 X-6.7601 Y62.8842 
G01 X-6.8688 Y62.7345 
G01 X-6.9995 Y62.6038 
G01 X-7.1492 Y62.4951 
G01 X-7.3140 Y62.4111 
G01 X-7.4899 Y62.3539 
G01 X-7.6725 Y62.3250 
G01 X-8.5352 Y62.3250 
G01 X-8.5352 Y62.1833 
G01 X-8.5594 Y62.0931 
G01 X-8.6061 Y62.0121 
G01 X-8.6721 Y61.9461 
G01 X-8.7530 Y61.8994 
G01 X-8.8433 Y61.8752 
G01 X-25.4467 Y61.8752 
G01 X-25.5369 Y61.8994 
G01 X-25.6179 Y61.9461 
G01 X-25.6839 Y62.0121 
G01 X-25.7306 Y62.0931 
G01 X-25.7548 Y62.1833 
G01 X-25.7548 Y63.9556 
G01 X-25.8207 Y63.9829 
G01 X-25.9662 Y64.0801 
G01 X-26.0899 Y64.2038 
G01 X-26.1871 Y64.3493 
G01 X-26.2541 Y64.5109 
G01 X-26.2882 Y64.6825 
G00 Z15.0000 
G00 X-18.6682 Y64.6825 
G01 Z0.0000  F1000  
G01 X-18.6682 Y64.8575 F400   
G01 X-18.6341 Y65.0291 
G01 X-18.5671 Y65.1907 
G01 X-18.4699 Y65.3362 
G01 X-18.3462 Y65.4599 
G01 X-18.2007 Y65.5571 
G01 X-18.1348 Y65.5844 
G01 X-18.1348 Y68.6267 
G01 X-18.1106 Y68.7169 
G01 X-18.0639 Y68.7978 
G01 X-17.9978 Y68.8639 
G01 X-17.9169 Y68.9106 
G01 X-17.8267 Y68.9348 
G01 X-11.1352 Y68.9348 
G01 X-11.1039 Y69.0310 
G01 X-11.0199 Y69.1958 
G01 X-10.9112 Y69.3455 
G01 X-10.7805 Y69.4762 
G01 X-10.6308 Y69.5849 
G01 X-10.4660 Y69.6689 
G01 X-10.2901 Y69.7261 
G01 X-10.1075 Y69.7550 
G01 X-7.6725 Y69.7550 
G01 X-7.4899 Y69.7261 
G01 X-7.3140 Y69.6689 
G01 X-7.1492 Y69.5849 
G01 X-6.9995 Y69.4762 
G01 X-6.8688 Y69.3455 
G01 X-6.7601 Y69.1958 
G01 X-6.6761 Y69.0310 
G01 X-6.6189 Y68.8551 
G01 X-6.5900 Y68.6725 
G01 X-6.5900 Y68.4875 
G01 X-6.6189 Y68.3049 
G01 X-6.6761 Y68.1290 
G01 X-6.7601 Y67.9642 
G01 X-6.8688 Y67.8145 
G01 X-6.9995 Y67.6838 
G01 X-7.1492 Y67.5751 
G01 X-7.3140 Y67.4911 
G01 X-7.4899 Y67.4339 
G01 X-7.6725 Y67.4050 
G01 X-10.1075 Y67.4050 
G01 X-10.2901 Y67.4339 
G01 X-10.4660 Y67.4911 
G01 X-10.6308 Y67.5751 
G01 X-10.7805 Y67.6838 
G01 X-10.9112 Y67.8145 
G01 X-11.0199 Y67.9642 
G01 X-11.1039 Y68.1290 
G01 X-11.1352 Y68.2252 
G01 X-17.4252 Y68.2252 
G01 X-17.4252 Y65.5844 
G01 X-17.3593 Y65.5571 
G01 X-17.2138 Y65.4599 
G01 X-17.0901 Y65.3362 
G01 X-16.9929 Y65.1907 
G01 X-16.9259 Y65.0291 
G01 X-16.8918 Y64.8575 
G01 X-16.8918 Y64.6825 
G01 X-16.9259 Y64.5109 
G01 X-16.9929 Y64.3493 
G01 X-17.0901 Y64.2038 
G01 X-17.2138 Y64.0801 
G01 X-17.3593 Y63.9829 
G01 X-17.5209 Y63.9159 
G01 X-17.6925 Y63.8818 
G01 X-17.8675 Y63.8818 
G01 X-18.0391 Y63.9159 
G01 X-18.2007 Y63.9829 
G01 X-18.3462 Y64.0801 
G01 X-18.4699 Y64.2038 
G01 X-18.5671 Y64.3493 
G01 X-18.6341 Y64.5109 
G01 X-18.6682 Y64.6825 
G00 Z15.0000 
G00 X-36.4482 Y57.0625 
G01 Z0.0000  F1000  
G01 X-36.4482 Y57.2375 F400   
G01 X-36.4141 Y57.4091 
G01 X-36.3471 Y57.5707 
G01 X-36.2499 Y57.7162 
G01 X-36.1262 Y57.8399 
G01 X-35.9807 Y57.9371 
G01 X-35.8191 Y58.0041 
G01 X-35.6475 Y58.0382 
G01 X-35.4725 Y58.0382 
G01 X-35.3009 Y58.0041 
G01 X-35.1393 Y57.9371 
G01 X-34.9938 Y57.8399 
G01 X-34.8701 Y57.7162 
G01 X-34.7729 Y57.5707 
G01 X-34.7059 Y57.4091 
G01 X-34.6718 Y57.2375 
G01 X-34.6718 Y57.0625 
G01 X-34.7059 Y56.8909 
G01 X-34.7729 Y56.7293 
G01 X-34.8701 Y56.5838 
G01 X-34.9938 Y56.4601 
G01 X-35.1393 Y56.3629 
G01 X-35.2052 Y56.3356 
G01 X-35.2052 Y56.2348 
G01 X-33.3748 Y56.2348 
G01 X-33.3748 Y57.9850 
G01 X-34.2407 Y57.9850 
G01 X-34.2700 Y59.8557 
G01 X-31.7993 Y59.8850 
G01 X-31.7700 Y58.0143 
G01 X-32.6652 Y57.9850 
G01 X-32.6652 Y56.2348 
G01 X-25.3533 Y56.2348 
G01 X-25.2630 Y56.2106 
G01 X-25.1821 Y56.1639 
G01 X-25.1161 Y56.0979 
G01 X-25.0694 Y56.0169 
G01 X-25.0452 Y55.9267 
G01 X-25.0452 Y53.9899 
G01 X-24.6896 Y53.6343 
G01 X-24.6896 Y53.0457 
G01 X-25.1057 Y52.6296 
G01 X-25.6943 Y52.6296 
G01 X-26.1104 Y53.0457 
G01 X-26.1104 Y53.6343 
G01 X-25.7548 Y53.9899 
G01 X-25.7548 Y55.5252 
G01 X-35.6067 Y55.5252 
G01 X-35.6969 Y55.5494 
G01 X-35.7779 Y55.5961 
G01 X-35.8439 Y55.6621 
G01 X-35.8906 Y55.7431 
G01 X-35.9148 Y55.8333 
G01 X-35.9148 Y56.3356 
G01 X-35.9807 Y56.3629 
G01 X-36.1262 Y56.4601 
G01 X-36.2499 Y56.5838 
G01 X-36.3471 Y56.7293 
G01 X-36.4141 Y56.8909 
G01 X-36.4482 Y57.0625 
G00 Z15.0000 
G00 X-26.2882 Y45.6325 
G01 Z0.0000  F1000  
G01 X-26.2882 Y45.8075 F400   
G01 X-26.2541 Y45.9791 
G01 X-26.1871 Y46.1407 
G01 X-26.0899 Y46.2862 
G01 X-25.9662 Y46.4099 
G01 X-25.8207 Y46.5071 
G01 X-25.6591 Y46.5741 
G01 X-25.4875 Y46.6082 
G01 X-25.3125 Y46.6082 
G01 X-25.1409 Y46.5741 
G01 X-24.9793 Y46.5071 
G01 X-24.8338 Y46.4099 
G01 X-24.7101 Y46.2862 
G01 X-24.6129 Y46.1407 
G01 X-24.5459 Y45.9791 
G01 X-24.5118 Y45.8075 
G01 X-24.5118 Y45.6325 
G01 X-24.5459 Y45.4609 
G01 X-24.6129 Y45.2993 
G01 X-24.7101 Y45.1538 
G01 X-24.8338 Y45.0301 
G01 X-24.9793 Y44.9329 
G01 X-25.0452 Y44.9056 
G01 X-25.0452 Y23.2148 
G01 X-11.1352 Y23.2148 
G01 X-11.1039 Y23.3110 
G01 X-11.0199 Y23.4758 
G01 X-10.9112 Y23.6255 
G01 X-10.7805 Y23.7562 
G01 X-10.6308 Y23.8649 
G01 X-10.4660 Y23.9489 
G01 X-10.2901 Y24.0061 
G01 X-10.1075 Y24.0350 
G01 X-7.6725 Y24.0350 
G01 X-7.4899 Y24.0061 
G01 X-7.3140 Y23.9489 
G01 X-7.1492 Y23.8649 
G01 X-6.9995 Y23.7562 
G01 X-6.8688 Y23.6255 
G01 X-6.7601 Y23.4758 
G01 X-6.6761 Y23.3110 
G01 X-6.6189 Y23.1351 
G01 X-6.5900 Y22.9525 
G01 X-6.5900 Y22.7675 
G01 X-6.6189 Y22.5848 
G01 X-6.6761 Y22.4090 
G01 X-6.7601 Y22.2442 
G01 X-6.8688 Y22.0945 
G01 X-6.9995 Y21.9638 
G01 X-7.1492 Y21.8551 
G01 X-7.3140 Y21.7711 
G01 X-7.4899 Y21.7139 
G01 X-7.6725 Y21.6850 
G01 X-10.1075 Y21.6850 
G01 X-10.2901 Y21.7139 
G01 X-10.4660 Y21.7711 
G01 X-10.6308 Y21.8551 
G01 X-10.7805 Y21.9638 
G01 X-10.9112 Y22.0945 
G01 X-11.0199 Y22.2442 
G01 X-11.1039 Y22.4090 
G01 X-11.1352 Y22.5052 
G01 X-25.4467 Y22.5052 
G01 X-25.5369 Y22.5294 
G01 X-25.6179 Y22.5761 
G01 X-25.6839 Y22.6421 
G01 X-25.7306 Y22.7231 
G01 X-25.7548 Y22.8133 
G01 X-25.7548 Y44.9056 
G01 X-25.8207 Y44.9329 
G01 X-25.9662 Y45.0301 
G01 X-26.0899 Y45.1538 
G01 X-26.1871 Y45.2993 
G01 X-26.2541 Y45.4609 
G01 X-26.2882 Y45.6325 
G00 Z15.0000 
G00 X-18.6682 Y45.6325 
G01 Z0.0000  F1000  
G01 X-18.6682 Y45.8075 F400   
G01 X-18.6341 Y45.9791 
G01 X-18.5671 Y46.1407 
G01 X-18.4699 Y46.2862 
G01 X-18.3462 Y46.4099 
G01 X-18.2007 Y46.5071 
G01 X-18.0391 Y46.5741 
G01 X-17.8675 Y46.6082 
G01 X-17.6925 Y46.6082 
G01 X-17.5209 Y46.5741 
G01 X-17.3593 Y46.5071 
G01 X-17.2138 Y46.4099 
G01 X-17.0901 Y46.2862 
G01 X-16.9929 Y46.1407 
G01 X-16.9259 Y45.9791 
G01 X-16.8918 Y45.8075 
G01 X-16.8918 Y45.6325 
G01 X-16.9259 Y45.4609 
G01 X-16.9929 Y45.2993 
G01 X-17.0901 Y45.1538 
G01 X-17.2138 Y45.0301 
G01 X-17.3593 Y44.9329 
G01 X-17.4252 Y44.9056 
G01 X-17.4252 Y28.2948 
G01 X-11.1352 Y28.2948 
G01 X-11.1039 Y28.3910 
G01 X-11.0199 Y28.5558 
G01 X-10.9112 Y28.7055 
G01 X-10.7805 Y28.8362 
G01 X-10.6308 Y28.9449 
G01 X-10.4660 Y29.0289 
G01 X-10.2901 Y29.0861 
G01 X-10.1075 Y29.1150 
G01 X-7.6725 Y29.1150 
G01 X-7.4899 Y29.0861 
G01 X-7.3140 Y29.0289 
G01 X-7.1492 Y28.9449 
G01 X-6.9995 Y28.8362 
G01 X-6.8688 Y28.7055 
G01 X-6.7601 Y28.5558 
G01 X-6.6761 Y28.3910 
G01 X-6.6189 Y28.2151 
G01 X-6.5900 Y28.0325 
G01 X-6.5900 Y27.8475 
G01 X-6.6189 Y27.6649 
G01 X-6.6761 Y27.4890 
G01 X-6.7601 Y27.3242 
G01 X-6.8688 Y27.1745 
G01 X-6.9995 Y27.0438 
G01 X-7.1492 Y26.9351 
G01 X-7.3140 Y26.8511 
G01 X-7.4899 Y26.7939 
G01 X-7.6725 Y26.7650 
G01 X-10.1075 Y26.7650 
G01 X-10.2901 Y26.7939 
G01 X-10.4660 Y26.8511 
G01 X-10.6308 Y26.9351 
G01 X-10.7805 Y27.0438 
G01 X-10.9112 Y27.1745 
G01 X-11.0199 Y27.3242 
G01 X-11.1039 Y27.4890 
G01 X-11.1352 Y27.5852 
G01 X-17.8267 Y27.5852 
G01 X-17.9169 Y27.6094 
G01 X-17.9978 Y27.6561 
G01 X-18.0639 Y27.7221 
G01 X-18.1106 Y27.8031 
G01 X-18.1348 Y27.8933 
G01 X-18.1348 Y44.9056 
G01 X-18.2007 Y44.9329 
G01 X-18.3462 Y45.0301 
G01 X-18.4699 Y45.1538 
G01 X-18.5671 Y45.2993 
G01 X-18.6341 Y45.4609 
G01 X-18.6682 Y45.6325 
G00 Z15.0000 
G00 X-36.4482 Y45.6325 
G01 Z0.0000  F1000  
G01 X-36.4482 Y45.8075 F400   
G01 X-36.4141 Y45.9791 
G01 X-36.3471 Y46.1407 
G01 X-36.2499 Y46.2862 
G01 X-36.1262 Y46.4099 
G01 X-35.9807 Y46.5071 
G01 X-35.8191 Y46.5741 
G01 X-35.6475 Y46.6082 
G01 X-35.4725 Y46.6082 
G01 X-35.3009 Y46.5741 
G01 X-35.1393 Y46.5071 
G01 X-34.9938 Y46.4099 
G01 X-34.8701 Y46.2862 
G01 X-34.7729 Y46.1407 
G01 X-34.7456 Y46.0748 
G01 X-34.6448 Y46.0748 
G01 X-34.6448 Y50.1501 
G01 X-35.0004 Y50.5057 
G01 X-35.0004 Y51.0943 
G01 X-34.5843 Y51.5104 
G01 X-33.9957 Y51.5104 
G01 X-33.5796 Y51.0943 
G01 X-33.5796 Y50.5057 
G01 X-33.9352 Y50.1501 
G01 X-33.9352 Y46.0748 
G01 X-32.9733 Y46.0748 
G01 X-32.8831 Y46.0506 
G01 X-32.8021 Y46.0039 
G01 X-32.7361 Y45.9379 
G01 X-32.6894 Y45.8569 
G01 X-32.6652 Y45.7667 
G01 X-32.6652 Y44.8850 
G01 X-31.7993 Y44.8850 
G01 X-31.7700 Y43.0143 
G01 X-34.2407 Y42.9850 
G01 X-34.2700 Y44.8557 
G01 X-33.3748 Y44.8850 
G01 X-33.3748 Y45.3652 
G01 X-34.7456 Y45.3652 
G01 X-34.7729 Y45.2993 
G01 X-34.8701 Y45.1538 
G01 X-34.9938 Y45.0301 
G01 X-35.1393 Y44.9329 
G01 X-35.3009 Y44.8659 
G01 X-35.4725 Y44.8318 
G01 X-35.6475 Y44.8318 
G01 X-35.8191 Y44.8659 
G01 X-35.9807 Y44.9329 
G01 X-36.1262 Y45.0301 
G01 X-36.2499 Y45.1538 
G01 X-36.3471 Y45.2993 
G01 X-36.4141 Y45.4609 
G01 X-36.4482 Y45.6325 
G00 Z15.0000 
G00 X-34.2407 Y40.8350 
G01 Z0.0000  F1000  
G01 X-31.7993 Y40.8350 F400   
G01 X-31.7700 Y40.8057 
G01 X-31.7700 Y39.7610 
G01 X-31.6808 Y39.7248 
G01 X-29.5648 Y39.7248 
G01 X-29.5648 Y49.5767 
G01 X-29.5406 Y49.6669 
G01 X-29.4939 Y49.7478 
G01 X-29.4279 Y49.8139 
G01 X-29.3469 Y49.8606 
G01 X-29.2567 Y49.8848 
G01 X-20.6748 Y49.8848 
G01 X-20.6748 Y56.7952 
G01 X-29.2567 Y56.7952 
G01 X-29.3469 Y56.8194 
G01 X-29.4279 Y56.8661 
G01 X-29.4939 Y56.9321 
G01 X-29.5406 Y57.0130 
G01 X-29.5648 Y57.1033 
G01 X-29.5648 Y63.1452 
G01 X-31.7700 Y63.1452 
G01 X-31.7700 Y62.0643 
G01 X-34.2407 Y62.0350 
G01 X-34.2700 Y63.9057 
G01 X-33.3748 Y63.9350 
G01 X-33.3748 Y64.4152 
G01 X-34.7456 Y64.4152 
G01 X-34.7729 Y64.3493 
G01 X-34.8701 Y64.2038 
G01 X-34.9938 Y64.0801 
G01 X-35.1393 Y63.9829 
G01 X-35.3009 Y63.9159 
G01 X-35.4725 Y63.8818 
G01 X-35.6475 Y63.8818 
G01 X-35.8191 Y63.9159 
G01 X-35.9807 Y63.9829 
G01 X-36.1262 Y64.0801 
G01 X-36.2499 Y64.2038 
G01 X-36.3471 Y64.3493 
G01 X-36.4141 Y64.5109 
G01 X-36.4482 Y64.6825 
G01 X-36.4482 Y64.8575 
G01 X-36.4141 Y65.0291 
G01 X-36.3471 Y65.1907 
G01 X-36.2499 Y65.3362 
G01 X-36.1262 Y65.4599 
G01 X-35.9807 Y65.5571 
G01 X-35.8191 Y65.6241 
G01 X-35.6475 Y65.6582 
G01 X-35.4725 Y65.6582 
G01 X-35.3009 Y65.6241 
G01 X-35.1393 Y65.5571 
G01 X-34.9938 Y65.4599 
G01 X-34.8701 Y65.3362 
G01 X-34.7729 Y65.1907 
G01 X-34.7456 Y65.1248 
G01 X-32.9733 Y65.1248 
G01 X-32.8831 Y65.1006 
G01 X-32.8021 Y65.0539 
G01 X-32.7361 Y64.9879 
G01 X-32.6894 Y64.9069 
G01 X-32.6652 Y64.8167 
G01 X-32.6652 Y63.9350 
G01 X-31.7993 Y63.9350 
G01 X-31.7700 Y63.8548 
G01 X-29.1633 Y63.8548 
G01 X-29.0731 Y63.8306 
G01 X-28.9921 Y63.7839 
G01 X-28.9261 Y63.7179 
G01 X-28.8794 Y63.6369 
G01 X-28.8552 Y63.5467 
G01 X-28.8552 Y57.5048 
G01 X-20.2733 Y57.5048 
G01 X-20.1831 Y57.4806 
G01 X-20.1021 Y57.4339 
G01 X-20.0361 Y57.3679 
G01 X-19.9894 Y57.2869 
G01 X-19.9652 Y57.1967 
G01 X-19.9652 Y49.8848 
G01 X-15.1933 Y49.8848 
G01 X-15.1031 Y49.8606 
G01 X-15.0221 Y49.8139 
G01 X-14.9561 Y49.7478 
G01 X-14.9094 Y49.6669 
G01 X-14.8852 Y49.5767 
G01 X-14.8852 Y37.1848 
G01 X-11.1352 Y37.1848 
G01 X-11.1039 Y37.2810 
G01 X-11.0199 Y37.4458 
G01 X-10.9112 Y37.5955 
G01 X-10.7805 Y37.7262 
G01 X-10.6308 Y37.8349 
G01 X-10.4660 Y37.9189 
G01 X-10.2901 Y37.9761 
G01 X-10.1075 Y38.0050 
G01 X-7.6725 Y38.0050 
G01 X-7.4899 Y37.9761 
G01 X-7.3140 Y37.9189 
G01 X-7.1492 Y37.8349 
G01 X-6.9995 Y37.7262 
G01 X-6.8688 Y37.5955 
G01 X-6.7601 Y37.4458 
G01 X-6.6761 Y37.2810 
G01 X-6.6189 Y37.1051 
G01 X-6.5900 Y36.9225 
G01 X-6.5900 Y36.7375 
G01 X-6.6189 Y36.5549 
G01 X-6.6761 Y36.3790 
G01 X-6.7601 Y36.2142 
G01 X-6.8688 Y36.0645 
G01 X-6.9995 Y35.9338 
G01 X-7.1492 Y35.8251 
G01 X-7.3140 Y35.7411 
G01 X-7.4899 Y35.6839 
G01 X-7.6725 Y35.6550 
G01 X-10.1075 Y35.6550 
G01 X-10.2901 Y35.6839 
G01 X-10.4660 Y35.7411 
G01 X-10.6308 Y35.8251 
G01 X-10.7805 Y35.9338 
G01 X-10.9112 Y36.0645 
G01 X-11.0199 Y36.2142 
G01 X-11.1039 Y36.3790 
G01 X-11.1352 Y36.4752 
G01 X-15.2867 Y36.4752 
G01 X-15.3769 Y36.4994 
G01 X-15.4579 Y36.5461 
G01 X-15.5239 Y36.6121 
G01 X-15.5706 Y36.6930 
G01 X-15.5948 Y36.7833 
G01 X-15.5948 Y49.1752 
G01 X-28.8552 Y49.1752 
G01 X-28.8552 Y39.3233 
G01 X-28.8794 Y39.2330 
G01 X-28.9261 Y39.1521 
G01 X-28.9921 Y39.0861 
G01 X-29.0731 Y39.0394 
G01 X-29.1633 Y39.0152 
G01 X-31.3952 Y39.0152 
G01 X-31.3952 Y38.0533 
G01 X-31.4194 Y37.9631 
G01 X-31.4661 Y37.8821 
G01 X-31.5321 Y37.8161 
G01 X-31.6131 Y37.7694 
G01 X-31.7033 Y37.7452 
G01 X-34.7456 Y37.7452 
G01 X-34.7729 Y37.6793 
G01 X-34.8701 Y37.5338 
G01 X-34.9938 Y37.4101 
G01 X-35.1393 Y37.3129 
G01 X-35.3009 Y37.2459 
G01 X-35.4725 Y37.2118 
G01 X-35.6475 Y37.2118 
G01 X-35.8191 Y37.2459 
G01 X-35.9807 Y37.3129 
G01 X-36.1262 Y37.4101 
G01 X-36.2499 Y37.5338 
G01 X-36.3471 Y37.6793 
G01 X-36.4141 Y37.8409 
G01 X-36.4482 Y38.0125 
G01 X-36.4482 Y38.1875 
G01 X-36.4141 Y38.3591 
G01 X-36.3471 Y38.5207 
G01 X-36.2499 Y38.6662 
G01 X-36.1262 Y38.7899 
G01 X-35.9807 Y38.8871 
G01 X-35.8191 Y38.9541 
G01 X-35.6475 Y38.9882 
G01 X-35.4725 Y38.9882 
G01 X-35.3009 Y38.9541 
G01 X-35.1393 Y38.8871 
G01 X-34.9938 Y38.7899 
G01 X-34.8701 Y38.6662 
G01 X-34.7729 Y38.5207 
G01 X-34.7456 Y38.4548 
G01 X-32.1048 Y38.4548 
G01 X-32.1048 Y38.9350 
G01 X-34.2407 Y38.9350 
G01 X-34.2700 Y40.8057 
G00 Z15.0000 
G00 X-105.9618 Y38.5529 
G01 Z0.0000  F1000  
G01 X-105.8629 Y38.6518 F400   
G01 X-105.7648 Y38.7173 
G01 X-105.7648 Y46.2718 
G01 X-105.9195 Y46.3691 
G01 X-106.0309 Y46.4805 
G01 X-106.1183 Y46.6114 
G01 X-106.1786 Y46.7569 
G01 X-106.2093 Y46.9113 
G01 X-106.2093 Y47.0687 
G01 X-106.1786 Y47.2231 
G01 X-106.1183 Y47.3686 
G01 X-106.0309 Y47.4995 
G01 X-105.9195 Y47.6109 
G01 X-105.7886 Y47.6983 
G01 X-105.6431 Y47.7586 
G01 X-105.4887 Y47.7893 
G01 X-105.3313 Y47.7893 
G01 X-105.1769 Y47.7586 
G01 X-105.0314 Y47.6983 
G01 X-104.9005 Y47.6109 
G01 X-104.7891 Y47.4995 
G01 X-104.7017 Y47.3686 
G01 X-104.6414 Y47.2231 
G01 X-104.6107 Y47.0687 
G01 X-104.6107 Y46.9113 
G01 X-104.6414 Y46.7569 
G01 X-104.7017 Y46.6114 
G01 X-104.7891 Y46.4805 
G01 X-104.9005 Y46.3691 
G01 X-105.0314 Y46.2817 
G01 X-105.0552 Y38.7173 
G01 X-104.9571 Y38.6518 
G01 X-104.8582 Y38.5529 
G01 X-104.7805 Y38.4365 
G01 X-104.7269 Y38.3072 
G01 X-104.6996 Y38.1700 
G01 X-104.6996 Y38.0300 
G01 X-104.7269 Y37.8928 
G01 X-104.7805 Y37.7635 
G01 X-104.8582 Y37.6471 
G01 X-104.9571 Y37.5482 
G01 X-105.0735 Y37.4704 
G01 X-105.2028 Y37.4169 
G01 X-105.3400 Y37.3896 
G01 X-105.4800 Y37.3896 
G01 X-105.6172 Y37.4169 
G01 X-105.7465 Y37.4704 
G01 X-105.8629 Y37.5482 
G01 X-105.9618 Y37.6471 
G01 X-106.0273 Y37.7452 
G01 X-107.5952 Y37.7452 
G01 X-107.5952 Y36.1696 
G01 X-107.5012 Y36.1068 
G01 X-107.4032 Y36.0088 
G01 X-107.3261 Y35.8935 
G01 X-107.2731 Y35.7653 
G01 X-107.2460 Y35.6293 
G01 X-107.2460 Y35.4907 
G01 X-107.2731 Y35.3546 
G01 X-107.3261 Y35.2265 
G01 X-107.4032 Y35.1112 
G01 X-107.5012 Y35.0132 
G01 X-107.6165 Y34.9361 
G01 X-107.7447 Y34.8831 
G01 X-107.8807 Y34.8560 
G01 X-108.0193 Y34.8560 
G01 X-108.1553 Y34.8831 
G01 X-108.2835 Y34.9361 
G01 X-108.3988 Y35.0132 
G01 X-108.4968 Y35.1112 
G01 X-108.5739 Y35.2265 
G01 X-108.6269 Y35.3546 
G01 X-108.6540 Y35.4907 
G01 X-108.6540 Y35.6293 
G01 X-108.6269 Y35.7653 
G01 X-108.5739 Y35.8935 
G01 X-108.4968 Y36.0088 
G01 X-108.3988 Y36.1068 
G01 X-108.3048 Y36.1696 
G01 X-108.3048 Y38.1467 
G01 X-108.2806 Y38.2369 
G01 X-108.2339 Y38.3178 
G01 X-108.1679 Y38.3839 
G01 X-108.0869 Y38.4306 
G01 X-107.9967 Y38.4548 
G01 X-106.0273 Y38.4548 
G01 X-105.9618 Y38.5529 
G00 Z15.0000 
G00 X-18.4904 Y16.2157 
G01 Z0.0000  F1000  
G01 X-18.4904 Y16.8043 F400   
G01 X-18.0743 Y17.2204 
G01 X-17.4857 Y17.2204 
G01 X-17.1301 Y16.8648 
G01 X-8.8433 Y16.8648 
G01 X-8.7530 Y16.8406 
G01 X-8.6721 Y16.7939 
G01 X-8.6061 Y16.7279 
G01 X-8.5594 Y16.6469 
G01 X-8.5352 Y16.5567 
G01 X-8.5352 Y16.4150 
G01 X-7.6725 Y16.4150 
G01 X-7.4899 Y16.3861 
G01 X-7.3140 Y16.3289 
G01 X-7.1492 Y16.2449 
G01 X-6.9995 Y16.1362 
G01 X-6.8688 Y16.0055 
G01 X-6.7601 Y15.8558 
G01 X-6.6761 Y15.6910 
G01 X-6.6189 Y15.5151 
G01 X-6.5900 Y15.3325 
G01 X-6.5900 Y15.1475 
G01 X-6.6189 Y14.9649 
G01 X-6.6761 Y14.7890 
G01 X-6.7601 Y14.6242 
G01 X-6.8688 Y14.4745 
G01 X-6.9995 Y14.3438 
G01 X-7.1492 Y14.2351 
G01 X-7.3140 Y14.1511 
G01 X-7.4899 Y14.0939 
G01 X-7.6725 Y14.0650 
G01 X-10.1075 Y14.0650 
G01 X-10.2901 Y14.0939 
G01 X-10.4660 Y14.1511 
G01 X-10.6308 Y14.2351 
G01 X-10.7805 Y14.3438 
G01 X-10.9112 Y14.4745 
G01 X-11.0199 Y14.6242 
G01 X-11.1039 Y14.7890 
G01 X-11.1611 Y14.9649 
G01 X-11.1900 Y15.1475 
G01 X-11.1900 Y15.3325 
G01 X-11.1611 Y15.5151 
G01 X-11.1039 Y15.6910 
G01 X-11.0199 Y15.8558 
G01 X-10.9112 Y16.0055 
G01 X-10.7805 Y16.1362 
G01 X-17.1301 Y16.1552 
G01 X-17.4857 Y15.7996 
G01 X-18.0743 Y15.7996 
G01 X-18.4904 Y16.2157 
G00 Z15.0000 
G00 X-19.3443 Y15.3154 
G01 Z0.0000  F1000  
G01 X-18.7557 Y15.3154 F400   
G01 X-18.3396 Y14.8993 
G01 X-18.3396 Y14.3107 
G01 X-18.7557 Y13.8946 
G01 X-19.3443 Y13.8946 
G01 X-19.6999 Y14.2502 
G01 X-45.7667 Y14.2502 
G01 X-45.8569 Y14.2744 
G01 X-45.9379 Y14.3211 
G01 X-46.0039 Y14.3871 
G01 X-46.0506 Y14.4680 
G01 X-46.0748 Y14.5583 
G01 X-46.0748 Y47.9052 
G01 X-78.3852 Y47.9052 
G01 X-78.3852 Y44.4033 
G01 X-78.4094 Y44.3131 
G01 X-78.4561 Y44.2321 
G01 X-78.5221 Y44.1661 
G01 X-78.6031 Y44.1194 
G01 X-78.6933 Y44.0952 
G01 X-81.3267 Y44.0952 
G01 X-81.4169 Y44.1194 
G01 X-81.4978 Y44.1661 
G01 X-81.5639 Y44.2321 
G01 X-81.6106 Y44.3131 
G01 X-81.6348 Y44.4033 
G01 X-81.6348 Y47.9052 
G01 X-84.7352 Y47.9052 
G01 X-84.7352 Y47.7082 
G01 X-84.5805 Y47.6109 
G01 X-84.4691 Y47.4995 
G01 X-84.3817 Y47.3686 
G01 X-84.3214 Y47.2231 
G01 X-84.2907 Y47.0687 
G01 X-84.2907 Y46.9113 
G01 X-84.3214 Y46.7569 
G01 X-84.3817 Y46.6114 
G01 X-84.4691 Y46.4805 
G01 X-84.5805 Y46.3691 
G01 X-84.7114 Y46.2817 
G01 X-84.7352 Y27.0248 
G01 X-71.0733 Y27.0248 
G01 X-70.9831 Y27.0006 
G01 X-70.9021 Y26.9539 
G01 X-70.8361 Y26.8879 
G01 X-70.7894 Y26.8069 
G01 X-70.7652 Y26.7167 
G01 X-70.7652 Y24.3539 
G01 X-70.6024 Y24.2527 
G01 X-70.4893 Y24.1396 
G01 X-70.4004 Y24.0066 
G01 X-70.3392 Y23.8589 
G01 X-70.3080 Y23.7020 
G01 X-70.3080 Y22.0180 
G01 X-70.3392 Y21.8611 
G01 X-70.4004 Y21.7134 
G01 X-70.4893 Y21.5804 
G01 X-70.6024 Y21.4673 
G01 X-70.7354 Y21.3784 
G01 X-70.8831 Y21.3172 
G01 X-71.0400 Y21.2860 
G01 X-71.2000 Y21.2860 
G01 X-71.3569 Y21.3172 
G01 X-71.5046 Y21.3784 
G01 X-71.6376 Y21.4673 
G01 X-71.7507 Y21.5804 
G01 X-71.8396 Y21.7134 
G01 X-71.9008 Y21.8611 
G01 X-71.9320 Y22.0180 
G01 X-71.9320 Y23.7020 
G01 X-71.9008 Y23.8589 
G01 X-71.8396 Y24.0066 
G01 X-71.7507 Y24.1396 
G01 X-71.6376 Y24.2527 
G01 X-71.5046 Y24.3416 
G01 X-71.4748 Y26.3152 
G01 X-85.1367 Y26.3152 
G01 X-85.2269 Y26.3394 
G01 X-85.3079 Y26.3861 
G01 X-85.3739 Y26.4521 
G01 X-85.4206 Y26.5331 
G01 X-85.4448 Y26.6233 
G01 X-85.4448 Y46.2718 
G01 X-85.5995 Y46.3691 
G01 X-85.7109 Y46.4805 
G01 X-85.7983 Y46.6114 
G01 X-85.8586 Y46.7569 
G01 X-85.8893 Y46.9113 
G01 X-85.8893 Y47.0687 
G01 X-85.8586 Y47.2231 
G01 X-85.7983 Y47.3686 
G01 X-85.7109 Y47.4995 
G01 X-85.5995 Y47.6109 
G01 X-85.4686 Y47.6983 
G01 X-85.4448 Y48.3067 
G01 X-85.4206 Y48.3969 
G01 X-85.3739 Y48.4779 
G01 X-85.3079 Y48.5439 
G01 X-85.2269 Y48.5906 
G01 X-85.1367 Y48.6148 
G01 X-81.2333 Y48.6148 
G01 X-81.1431 Y48.5906 
G01 X-81.0621 Y48.5439 
G01 X-80.9961 Y48.4779 
G01 X-80.9494 Y48.3969 
G01 X-80.9252 Y48.3067 
G01 X-80.9252 Y44.8048 
G01 X-79.0948 Y44.8048 
G01 X-79.0948 Y48.3067 
G01 X-79.0706 Y48.3969 
G01 X-79.0239 Y48.4779 
G01 X-78.9579 Y48.5439 
G01 X-78.8769 Y48.5906 
G01 X-78.7867 Y48.6148 
G01 X-45.6733 Y48.6148 
G01 X-45.5831 Y48.5906 
G01 X-45.5021 Y48.5439 
G01 X-45.4361 Y48.4779 
G01 X-45.3894 Y48.3969 
G01 X-45.3652 Y48.3067 
G01 X-45.3652 Y14.9598 
G01 X-19.6999 Y14.9598 
G01 X-19.3443 Y15.3154 
G00 Z15.0000 
G00 X-21.0304 Y16.2157 
G01 Z0.0000  F1000  
G01 X-21.0304 Y16.8043 F400   
G01 X-20.6748 Y17.1599 
G01 X-20.6748 Y20.3667 
G01 X-20.6506 Y20.4569 
G01 X-20.6039 Y20.5379 
G01 X-20.5379 Y20.6039 
G01 X-20.4569 Y20.6506 
G01 X-20.3667 Y20.6748 
G01 X-5.4348 Y20.6748 
G01 X-5.4348 Y39.0152 
G01 X-14.0167 Y39.0152 
G01 X-14.1069 Y39.0394 
G01 X-14.1879 Y39.0861 
G01 X-14.2539 Y39.1521 
G01 X-14.3006 Y39.2330 
G01 X-14.3248 Y39.3233 
G01 X-14.3248 Y51.7152 
G01 X-17.8267 Y51.7152 
G01 X-17.9169 Y51.7394 
G01 X-17.9978 Y51.7861 
G01 X-18.0639 Y51.8521 
G01 X-18.1106 Y51.9331 
G01 X-18.1348 Y52.0233 
G01 X-18.1348 Y59.3352 
G01 X-27.9867 Y59.3352 
G01 X-28.0769 Y59.3594 
G01 X-28.1578 Y59.4061 
G01 X-28.2239 Y59.4721 
G01 X-28.2706 Y59.5531 
G01 X-28.2948 Y59.6433 
G01 X-28.2948 Y66.9552 
G01 X-44.0952 Y66.9552 
G01 X-44.0952 Y53.6948 
G01 X-34.9398 Y53.6948 
G01 X-34.5843 Y54.0504 
G01 X-33.9957 Y54.0504 
G01 X-33.6401 Y53.6948 
G01 X-28.5899 Y53.6948 
G01 X-28.2343 Y54.0504 
G01 X-27.6457 Y54.0504 
G01 X-27.2296 Y53.6343 
G01 X-27.2296 Y53.0457 
G01 X-27.6457 Y52.6296 
G01 X-28.2343 Y52.6296 
G01 X-28.5899 Y52.9852 
G01 X-33.6401 Y52.9852 
G01 X-33.9957 Y52.6296 
G01 X-34.5843 Y52.6296 
G01 X-34.9398 Y52.9852 
G01 X-44.4967 Y52.9852 
G01 X-44.5869 Y53.0094 
G01 X-44.6679 Y53.0561 
G01 X-44.7339 Y53.1221 
G01 X-44.7806 Y53.2031 
G01 X-44.8048 Y53.2933 
G01 X-44.8048 Y75.8452 
G01 X-65.6852 Y75.8452 
G01 X-65.6852 Y72.6139 
G01 X-65.5224 Y72.5127 
G01 X-65.4093 Y72.3996 
G01 X-65.3204 Y72.2666 
G01 X-65.2592 Y72.1189 
G01 X-65.2280 Y71.9620 
G01 X-65.2280 Y70.2780 
G01 X-65.2592 Y70.1211 
G01 X-65.3204 Y69.9734 
G01 X-65.4093 Y69.8404 
G01 X-65.5224 Y69.7273 
G01 X-65.6554 Y69.6384 
G01 X-65.8031 Y69.5772 
G01 X-65.9600 Y69.5460 
G01 X-66.1200 Y69.5460 
G01 X-66.2769 Y69.5772 
G01 X-66.4246 Y69.6384 
G01 X-66.5576 Y69.7273 
G01 X-66.6707 Y69.8404 
G01 X-66.7596 Y69.9734 
G01 X-66.8208 Y70.1211 
G01 X-66.8520 Y70.2780 
G01 X-66.8520 Y70.7652 
G01 X-67.7680 Y70.7652 
G01 X-67.7680 Y70.2780 
G01 X-67.7992 Y70.1211 
G01 X-67.8604 Y69.9734 
G01 X-67.9493 Y69.8404 
G01 X-68.0624 Y69.7273 
G01 X-68.1954 Y69.6384 
G01 X-68.2252 Y67.6648 
G01 X-62.5848 Y67.6648 
G01 X-62.5848 Y73.7067 
G01 X-62.5606 Y73.7969 
G01 X-62.5139 Y73.8779 
G01 X-62.4479 Y73.9439 
G01 X-62.3669 Y73.9906 
G01 X-62.2767 Y74.0148 
G01 X-48.2133 Y74.0148 
G01 X-48.1230 Y73.9906 
G01 X-48.0421 Y73.9439 
G01 X-47.9761 Y73.8779 
G01 X-47.9294 Y73.7969 
G01 X-47.9052 Y73.7067 
G01 X-47.9052 Y57.1033 
G01 X-47.9294 Y57.0130 
G01 X-47.9761 Y56.9321 
G01 X-48.0421 Y56.8661 
G01 X-48.1230 Y56.8194 
G01 X-48.2133 Y56.7952 
G01 X-68.0315 Y56.7952 
G01 X-68.0726 Y56.7336 
G01 X-68.1636 Y56.6426 
G01 X-68.2706 Y56.5711 
G01 X-68.3895 Y56.5219 
G01 X-68.5157 Y56.4968 
G01 X-68.6443 Y56.4968 
G01 X-68.7705 Y56.5219 
G01 X-68.8894 Y56.5711 
G01 X-68.9964 Y56.6426 
G01 X-69.0874 Y56.7336 
G01 X-69.1285 Y56.7952 
G01 X-79.6552 Y56.7952 
G01 X-79.6552 Y55.3282 
G01 X-79.5005 Y55.2309 
G01 X-79.3891 Y55.1195 
G01 X-79.3017 Y54.9886 
G01 X-79.2414 Y54.8431 
G01 X-79.2107 Y54.6887 
G01 X-79.2107 Y54.5313 
G01 X-79.2414 Y54.3769 
G01 X-79.3017 Y54.2314 
G01 X-79.3891 Y54.1005 
G01 X-79.5005 Y53.9891 
G01 X-79.6314 Y53.9017 
G01 X-79.6552 Y53.2933 
G01 X-79.6794 Y53.2031 
G01 X-79.7261 Y53.1221 
G01 X-79.7921 Y53.0561 
G01 X-79.8731 Y53.0094 
G01 X-79.9633 Y52.9852 
G01 X-86.0052 Y52.9852 
G01 X-86.0052 Y52.0233 
G01 X-86.0294 Y51.9331 
G01 X-86.0761 Y51.8521 
G01 X-86.1421 Y51.7861 
G01 X-86.2231 Y51.7394 
G01 X-86.3133 Y51.7152 
G01 X-108.8652 Y51.7152 
G01 X-108.8652 Y43.5348 
G01 X-107.0348 Y43.5348 
G01 X-107.0348 Y49.5767 
G01 X-107.0106 Y49.6669 
G01 X-106.9639 Y49.7478 
G01 X-106.8979 Y49.8139 
G01 X-106.8169 Y49.8606 
G01 X-106.7267 Y49.8848 
G01 X-101.5533 Y49.8848 
G01 X-101.4631 Y49.8606 
G01 X-101.3821 Y49.8139 
G01 X-101.3161 Y49.7478 
G01 X-101.2694 Y49.6669 
G01 X-101.2452 Y49.5767 
G01 X-101.2452 Y40.9948 
G01 X-95.6048 Y40.9948 
G01 X-95.6048 Y46.2718 
G01 X-95.7595 Y46.3691 
G01 X-95.8709 Y46.4805 
G01 X-95.9583 Y46.6114 
G01 X-96.0186 Y46.7569 
G01 X-96.0493 Y46.9113 
G01 X-96.0493 Y47.0687 
G01 X-96.0186 Y47.2231 
G01 X-95.9583 Y47.3686 
G01 X-95.8709 Y47.4995 
G01 X-95.7595 Y47.6109 
G01 X-95.6286 Y47.6983 
G01 X-95.4831 Y47.7586 
G01 X-95.3287 Y47.7893 
G01 X-95.1713 Y47.7893 
G01 X-95.0169 Y47.7586 
G01 X-94.8714 Y47.6983 
G01 X-94.7405 Y47.6109 
G01 X-94.6291 Y47.4995 
G01 X-94.5417 Y47.3686 
G01 X-94.4814 Y47.2231 
G01 X-94.4507 Y47.0687 
G01 X-94.4507 Y46.9113 
G01 X-94.4814 Y46.7569 
G01 X-94.5417 Y46.6114 
G01 X-94.6291 Y46.4805 
G01 X-94.7405 Y46.3691 
G01 X-94.8714 Y46.2817 
G01 X-94.8952 Y32.9733 
G01 X-94.9194 Y32.8831 
G01 X-94.9661 Y32.8021 
G01 X-95.0321 Y32.7361 
G01 X-95.1131 Y32.6894 
G01 X-95.2033 Y32.6652 
G01 X-99.7204 Y32.6652 
G01 X-99.7832 Y32.5712 
G01 X-99.8812 Y32.4732 
G01 X-99.9752 Y32.4104 
G01 X-99.9752 Y31.0896 
G01 X-99.8812 Y31.0268 
G01 X-99.7832 Y30.9288 
G01 X-99.7061 Y30.8135 
G01 X-99.6531 Y30.6853 
G01 X-99.6260 Y30.5493 
G01 X-99.6260 Y30.4107 
G01 X-99.6531 Y30.2747 
G01 X-99.7061 Y30.1465 
G01 X-99.7832 Y30.0312 
G01 X-99.8812 Y29.9332 
G01 X-99.9965 Y29.8561 
G01 X-100.1247 Y29.8031 
G01 X-100.2607 Y29.7760 
G01 X-100.3993 Y29.7760 
G01 X-100.5353 Y29.8031 
G01 X-100.6635 Y29.8561 
G01 X-100.7788 Y29.9332 
G01 X-100.8768 Y30.0312 
G01 X-100.9396 Y30.1252 
G01 X-107.3404 Y30.1252 
G01 X-107.4032 Y30.0312 
G01 X-107.5012 Y29.9332 
G01 X-107.6165 Y29.8561 
G01 X-107.7447 Y29.8031 
G01 X-107.8807 Y29.7760 
G01 X-108.0193 Y29.7760 
G01 X-108.1553 Y29.8031 
G01 X-108.2835 Y29.8561 
G01 X-108.3988 Y29.9332 
G01 X-108.4968 Y30.0312 
G01 X-108.5739 Y30.1465 
G01 X-108.6269 Y30.2747 
G01 X-108.6540 Y30.4107 
G01 X-108.6540 Y30.5493 
G01 X-108.6269 Y30.6853 
G01 X-108.5739 Y30.8135 
G01 X-108.4968 Y30.9288 
G01 X-108.3988 Y31.0268 
G01 X-108.3048 Y31.0896 
G01 X-108.3048 Y32.4104 
G01 X-108.3988 Y32.4732 
G01 X-108.4968 Y32.5712 
G01 X-108.5739 Y32.6865 
G01 X-108.6269 Y32.8147 
G01 X-108.6540 Y32.9507 
G01 X-108.6540 Y33.0893 
G01 X-108.6269 Y33.2253 
G01 X-108.5739 Y33.3535 
G01 X-108.4968 Y33.4688 
G01 X-108.3988 Y33.5668 
G01 X-108.2835 Y33.6439 
G01 X-108.1553 Y33.6969 
G01 X-108.0193 Y33.7240 
G01 X-107.8807 Y33.7240 
G01 X-107.7447 Y33.6969 
G01 X-107.6165 Y33.6439 
G01 X-107.5012 Y33.5668 
G01 X-107.4032 Y33.4688 
G01 X-107.3261 Y33.3535 
G01 X-107.2731 Y33.2253 
G01 X-107.2460 Y33.0893 
G01 X-107.2460 Y32.9507 
G01 X-107.2731 Y32.8147 
G01 X-107.3261 Y32.6865 
G01 X-107.4032 Y32.5712 
G01 X-107.5012 Y32.4732 
G01 X-107.5952 Y32.4104 
G01 X-107.5952 Y31.0896 
G01 X-107.5012 Y31.0268 
G01 X-107.4032 Y30.9288 
G01 X-107.3404 Y30.8348 
G01 X-100.9396 Y30.8348 
G01 X-100.8768 Y30.9288 
G01 X-100.7788 Y31.0268 
G01 X-100.6848 Y31.0896 
G01 X-100.6848 Y32.4104 
G01 X-100.7788 Y32.4732 
G01 X-100.8768 Y32.5712 
G01 X-100.9539 Y32.6865 
G01 X-101.0069 Y32.8147 
G01 X-101.0340 Y32.9507 
G01 X-101.0340 Y33.0893 
G01 X-101.0069 Y33.2253 
G01 X-100.9539 Y33.3535 
G01 X-100.8768 Y33.4688 
G01 X-100.7788 Y33.5668 
G01 X-100.6635 Y33.6439 
G01 X-100.5353 Y33.6969 
G01 X-100.3993 Y33.7240 
G01 X-100.2607 Y33.7240 
G01 X-100.1247 Y33.6969 
G01 X-99.9965 Y33.6439 
G01 X-99.8812 Y33.5668 
G01 X-99.7832 Y33.4688 
G01 X-99.7204 Y33.3748 
G01 X-95.6048 Y33.3748 
G01 X-95.6048 Y40.2852 
G01 X-101.6467 Y40.2852 
G01 X-101.7369 Y40.3094 
G01 X-101.8179 Y40.3561 
G01 X-101.8839 Y40.4221 
G01 X-101.9306 Y40.5031 
G01 X-101.9548 Y40.5933 
G01 X-101.9548 Y49.1752 
G01 X-106.3252 Y49.1752 
G01 X-106.3252 Y43.1333 
G01 X-106.3494 Y43.0431 
G01 X-106.3961 Y42.9621 
G01 X-106.4621 Y42.8961 
G01 X-106.5431 Y42.8494 
G01 X-106.6333 Y42.8252 
G01 X-109.2667 Y42.8252 
G01 X-109.3569 Y42.8494 
G01 X-109.4379 Y42.8961 
G01 X-109.5039 Y42.9621 
G01 X-109.5506 Y43.0431 
G01 X-109.5748 Y43.1333 
G01 X-109.5748 Y52.1167 
G01 X-109.5506 Y52.2069 
G01 X-109.5039 Y52.2879 
G01 X-109.4379 Y52.3539 
G01 X-109.3569 Y52.4006 
G01 X-109.2667 Y52.4248 
G01 X-86.7148 Y52.4248 
G01 X-86.7148 Y53.3867 
G01 X-86.6906 Y53.4769 
G01 X-86.6439 Y53.5579 
G01 X-86.5778 Y53.6239 
G01 X-86.4969 Y53.6706 
G01 X-86.4067 Y53.6948 
G01 X-80.3648 Y53.6948 
G01 X-80.3648 Y53.8918 
G01 X-80.5195 Y53.9891 
G01 X-80.6309 Y54.1005 
G01 X-80.7183 Y54.2314 
G01 X-80.7786 Y54.3769 
G01 X-80.8093 Y54.5313 
G01 X-80.8093 Y54.6887 
G01 X-80.7786 Y54.8431 
G01 X-80.7183 Y54.9886 
G01 X-80.6309 Y55.1195 
G01 X-80.5195 Y55.2309 
G01 X-80.3886 Y55.3183 
G01 X-80.3648 Y57.1967 
G01 X-80.3406 Y57.2869 
G01 X-80.2939 Y57.3679 
G01 X-80.2279 Y57.4339 
G01 X-80.1469 Y57.4806 
G01 X-80.0567 Y57.5048 
G01 X-69.1285 Y57.5048 
G01 X-69.0874 Y57.5664 
G01 X-68.9964 Y57.6574 
G01 X-68.8894 Y57.7289 
G01 X-68.7705 Y57.7781 
G01 X-68.6443 Y57.8032 
G01 X-68.5157 Y57.8032 
G01 X-68.3895 Y57.7781 
G01 X-68.2706 Y57.7289 
G01 X-68.1636 Y57.6574 
G01 X-68.0726 Y57.5664 
G01 X-68.0315 Y57.5048 
G01 X-48.6148 Y57.5048 
G01 X-48.6148 Y73.3052 
G01 X-61.8752 Y73.3052 
G01 X-61.8752 Y67.2633 
G01 X-61.8994 Y67.1731 
G01 X-61.9461 Y67.0921 
G01 X-62.0121 Y67.0261 
G01 X-62.0931 Y66.9794 
G01 X-62.1833 Y66.9552 
G01 X-68.6267 Y66.9552 
G01 X-68.7169 Y66.9794 
G01 X-68.7978 Y67.0261 
G01 X-68.8639 Y67.0921 
G01 X-68.9106 Y67.1731 
G01 X-68.9348 Y67.2633 
G01 X-68.9348 Y69.6261 
G01 X-69.0976 Y69.7273 
G01 X-69.2107 Y69.8404 
G01 X-69.2996 Y69.9734 
G01 X-69.3608 Y70.1211 
G01 X-69.3920 Y70.2780 
G01 X-69.3920 Y71.9620 
G01 X-69.3608 Y72.1189 
G01 X-69.2996 Y72.2666 
G01 X-69.2107 Y72.3996 
G01 X-69.0976 Y72.5127 
G01 X-68.9646 Y72.6016 
G01 X-68.8169 Y72.6628 
G01 X-68.6600 Y72.6940 
G01 X-68.5000 Y72.6940 
G01 X-68.3431 Y72.6628 
G01 X-68.1954 Y72.6016 
G01 X-68.0624 Y72.5127 
G01 X-67.9493 Y72.3996 
G01 X-67.8604 Y72.2666 
G01 X-67.7992 Y72.1189 
G01 X-67.7680 Y71.9620 
G01 X-67.7680 Y71.4748 
G01 X-66.8520 Y71.4748 
G01 X-66.8520 Y71.9620 
G01 X-66.8208 Y72.1189 
G01 X-66.7596 Y72.2666 
G01 X-66.6707 Y72.3996 
G01 X-66.5576 Y72.5127 
G01 X-66.4246 Y72.6016 
G01 X-66.3948 Y76.2467 
G01 X-66.3706 Y76.3369 
G01 X-66.3239 Y76.4179 
G01 X-66.2579 Y76.4839 
G01 X-66.1769 Y76.5306 
G01 X-66.0867 Y76.5548 
G01 X-44.4033 Y76.5548 
G01 X-44.3131 Y76.5306 
G01 X-44.2321 Y76.4839 
G01 X-44.1661 Y76.4179 
G01 X-44.1194 Y76.3369 
G01 X-44.0952 Y76.2467 
G01 X-44.0952 Y67.6648 
G01 X-27.8933 Y67.6648 
G01 X-27.8031 Y67.6406 
G01 X-27.7221 Y67.5939 
G01 X-27.6561 Y67.5279 
G01 X-27.6094 Y67.4469 
G01 X-27.5852 Y67.3567 
G01 X-27.5852 Y60.0448 
G01 X-17.7333 Y60.0448 
G01 X-17.6431 Y60.0206 
G01 X-17.5621 Y59.9739 
G01 X-17.4961 Y59.9079 
G01 X-17.4494 Y59.8269 
G01 X-17.4252 Y59.7367 
G01 X-17.4252 Y52.4248 
G01 X-11.1352 Y52.4248 
G01 X-11.1039 Y52.5210 
G01 X-11.0199 Y52.6858 
G01 X-10.9112 Y52.8355 
G01 X-10.7805 Y52.9662 
G01 X-10.6308 Y53.0749 
G01 X-10.4660 Y53.1589 
G01 X-10.2901 Y53.2161 
G01 X-10.1075 Y53.2450 
G01 X-7.6725 Y53.2450 
G01 X-7.4899 Y53.2161 
G01 X-7.3140 Y53.1589 
G01 X-7.1492 Y53.0749 
G01 X-6.9995 Y52.9662 
G01 X-6.8688 Y52.8355 
G01 X-6.7601 Y52.6858 
G01 X-6.6761 Y52.5210 
G01 X-6.6189 Y52.3451 
G01 X-6.5900 Y52.1625 
G01 X-6.5900 Y51.9775 
G01 X-6.6189 Y51.7949 
G01 X-6.6761 Y51.6190 
G01 X-6.7601 Y51.4542 
G01 X-6.8688 Y51.3045 
G01 X-6.9995 Y51.1738 
G01 X-7.1492 Y51.0650 
G01 X-7.3140 Y50.9811 
G01 X-7.4899 Y50.9239 
G01 X-7.6725 Y50.8950 
G01 X-10.1075 Y50.8950 
G01 X-10.2901 Y50.9239 
G01 X-10.4660 Y50.9811 
G01 X-10.6308 Y51.0650 
G01 X-10.7805 Y51.1738 
G01 X-10.9112 Y51.3045 
G01 X-11.0199 Y51.4542 
G01 X-11.1039 Y51.6190 
G01 X-11.1352 Y51.7152 
G01 X-13.6152 Y51.7152 
G01 X-13.6152 Y39.7248 
G01 X-5.0333 Y39.7248 
G01 X-4.9431 Y39.7006 
G01 X-4.8621 Y39.6539 
G01 X-4.7961 Y39.5879 
G01 X-4.7494 Y39.5069 
G01 X-4.7252 Y39.4167 
G01 X-4.7252 Y20.2733 
G01 X-4.7494 Y20.1831 
G01 X-4.7961 Y20.1021 
G01 X-4.8621 Y20.0361 
G01 X-4.9431 Y19.9894 
G01 X-5.0333 Y19.9652 
G01 X-19.9652 Y19.9652 
G01 X-19.9652 Y17.1599 
G01 X-19.6096 Y16.8043 
G01 X-19.6096 Y16.2157 
G01 X-20.0257 Y15.7996 
G01 X-20.6143 Y15.7996 
G01 X-21.0304 Y16.2157 
G00 Z15.0000 
G00 X-10.1075 Y48.1650 
G01 Z0.0000  F1000  
G01 X-7.6725 Y48.1650 F400   
G01 X-7.4899 Y48.1361 
G01 X-7.3140 Y48.0789 
G01 X-7.1492 Y47.9949 
G01 X-6.9995 Y47.8862 
G01 X-6.8688 Y47.7555 
G01 X-6.7601 Y47.6058 
G01 X-6.6761 Y47.4410 
G01 X-6.6448 Y47.3448 
G01 X-4.1648 Y47.3448 
G01 X-4.1648 Y78.3852 
G01 X-94.8952 Y78.3852 
G01 X-94.8952 Y65.9933 
G01 X-94.9194 Y65.9031 
G01 X-94.9661 Y65.8221 
G01 X-95.0321 Y65.7561 
G01 X-95.1131 Y65.7094 
G01 X-95.2033 Y65.6852 
G01 X-121.5652 Y65.6852 
G01 X-121.5652 Y14.3248 
G01 X-116.7933 Y14.3248 
G01 X-116.7031 Y14.3006 
G01 X-116.6221 Y14.2539 
G01 X-116.5561 Y14.1879 
G01 X-116.5094 Y14.1069 
G01 X-116.4852 Y14.0167 
G01 X-116.4852 Y7.9748  
G01 X-109.5748 Y7.9748  
G01 X-109.5748 Y17.4252 
G01 X-118.1567 Y17.4252 
G01 X-118.2469 Y17.4494 
G01 X-118.3279 Y17.4961 
G01 X-118.3939 Y17.5621 
G01 X-118.4406 Y17.6431 
G01 X-118.4648 Y17.7333 
G01 X-118.4648 Y62.2767 
G01 X-118.4406 Y62.3669 
G01 X-118.3939 Y62.4479 
G01 X-118.3279 Y62.5139 
G01 X-118.2469 Y62.5606 
G01 X-118.1567 Y62.5848 
G01 X-100.2833 Y62.5848 
G01 X-100.1930 Y62.5606 
G01 X-100.1121 Y62.5139 
G01 X-100.0461 Y62.4479 
G01 X-99.9994 Y62.3669 
G01 X-99.9752 Y62.2767 
G01 X-99.9752 Y55.3282 
G01 X-99.8205 Y55.2309 
G01 X-99.7091 Y55.1195 
G01 X-99.6217 Y54.9886 
G01 X-99.5614 Y54.8431 
G01 X-99.5307 Y54.6887 
G01 X-99.5307 Y54.5313 
G01 X-99.5614 Y54.3769 
G01 X-99.6217 Y54.2314 
G01 X-99.7091 Y54.1005 
G01 X-99.8205 Y53.9891 
G01 X-99.9514 Y53.9017 
G01 X-100.0969 Y53.8414 
G01 X-100.2513 Y53.8107 
G01 X-100.4087 Y53.8107 
G01 X-100.5631 Y53.8414 
G01 X-100.7086 Y53.9017 
G01 X-100.8395 Y53.9891 
G01 X-100.9509 Y54.1005 
G01 X-101.0383 Y54.2314 
G01 X-101.0986 Y54.3769 
G01 X-101.1293 Y54.5313 
G01 X-101.1293 Y54.6887 
G01 X-101.0986 Y54.8431 
G01 X-101.0383 Y54.9886 
G01 X-100.9509 Y55.1195 
G01 X-100.8395 Y55.2309 
G01 X-100.7086 Y55.3183 
G01 X-100.6848 Y61.8752 
G01 X-117.7552 Y61.8752 
G01 X-117.7552 Y18.1348 
G01 X-109.1733 Y18.1348 
G01 X-109.0831 Y18.1106 
G01 X-109.0021 Y18.0639 
G01 X-108.9361 Y17.9978 
G01 X-108.8894 Y17.9169 
G01 X-108.8652 Y17.8267 
G01 X-108.8652 Y7.5733  
G01 X-108.8894 Y7.4831  
G01 X-108.9361 Y7.4021  
G01 X-109.0021 Y7.3361  
G01 X-109.0831 Y7.2894  
G01 X-109.1733 Y7.2652  
G01 X-116.8867 Y7.2652  
G01 X-116.9769 Y7.2894  
G01 X-117.0579 Y7.3361  
G01 X-117.1239 Y7.4021  
G01 X-117.1706 Y7.4831  
G01 X-117.1948 Y7.5733  
G01 X-117.1948 Y13.6152 
G01 X-121.9667 Y13.6152 
G01 X-122.0569 Y13.6394 
G01 X-122.1379 Y13.6861 
G01 X-122.2039 Y13.7521 
G01 X-122.2506 Y13.8331 
G01 X-122.2748 Y13.9233 
G01 X-122.2748 Y66.0867 
G01 X-122.2506 Y66.1769 
G01 X-122.2039 Y66.2579 
G01 X-122.1379 Y66.3239 
G01 X-122.0569 Y66.3706 
G01 X-121.9667 Y66.3948 
G01 X-95.6048 Y66.3948 
G01 X-95.6048 Y78.7867 
G01 X-95.5806 Y78.8769 
G01 X-95.5339 Y78.9579 
G01 X-95.4678 Y79.0239 
G01 X-95.3869 Y79.0706 
G01 X-95.2967 Y79.0948 
G01 X-3.7633 Y79.0948 
G01 X-3.6731 Y79.0706 
G01 X-3.5921 Y79.0239 
G01 X-3.5261 Y78.9579 
G01 X-3.4794 Y78.8769 
G01 X-3.4552 Y78.7867 
G01 X-3.4552 Y46.9433 
G01 X-3.4794 Y46.8531 
G01 X-3.5261 Y46.7721 
G01 X-3.5921 Y46.7061 
G01 X-3.6731 Y46.6594 
G01 X-3.7633 Y46.6352 
G01 X-6.6448 Y46.6352 
G01 X-6.6761 Y46.5390 
G01 X-6.7601 Y46.3742 
G01 X-6.8688 Y46.2245 
G01 X-6.9995 Y46.0938 
G01 X-7.1492 Y45.9851 
G01 X-7.3140 Y45.9011 
G01 X-7.4899 Y45.8439 
G01 X-7.6725 Y45.8150 
G01 X-10.1075 Y45.8150 
G01 X-10.2901 Y45.8439 
G01 X-10.4660 Y45.9011 
G01 X-10.6308 Y45.9851 
G01 X-10.7805 Y46.0938 
G01 X-10.9112 Y46.2245 
G01 X-11.0199 Y46.3742 
G01 X-11.1039 Y46.5390 
G01 X-11.1611 Y46.7149 
G01 X-11.1900 Y46.8975 
G01 X-11.1900 Y47.0825 
G01 X-11.1611 Y47.2651 
G01 X-11.1039 Y47.4410 
G01 X-11.0199 Y47.6058 
G01 X-10.9112 Y47.7555 
G01 X-10.7805 Y47.8862 
G01 X-10.6308 Y47.9949 
G01 X-10.4660 Y48.0789 
G01 X-10.2901 Y48.1361 
G01 X-10.1075 Y48.1650 
G00 Z15.0000 
