(.../eagle/ulp/pcb-gcode/pcb-gcode.ulp)
(Copyright 2005 - 2012 by John Johnson)
(See readme.txt for licensing terms.)
(This file generated from the board:)
(.../climate_control/climate_control.brd)
(Current profile is .../ulp/pcb-gcode/profiles/mach.pp  )
(This file generated 23/04/14 8:40 PM)
(Settings from pcb-machine.h)
(  Tool Size)
(0.1000  )
(Z Axis Settings)
(  High     Up        Down     Drill)
(25.0000 	15.0000 	0.0000  	0.0000  )
(spindle on time = 3.0000)
(milling depth = 0.0000)
(text depth = -0.1270)
(tool change at 12.7000 15.2400 25.4000 )
(feed rate xy = F400   )
(feed rate z  = F1000  )
(Settings from pcb-defaults.h)
(isolate min = 0.0000)
(isolate max = 1.0000)
(isolate step = 0.1000)
(Generated bottom outlines, bottom drill, )
(Unit of measure: mm)
( Tool|       Size       |  Min Sub |  Max Sub |   Count )
( T01 | 0.800mm 0.0315in | 0.0000in | 0.0000in |       0 )
( T02 | 0.813mm 0.0320in | 0.0000in | 0.0000in |       0 )
( T03 | 0.991mm 0.0390in | 0.0000in | 0.0000in |       0 )
( T04 | 1.016mm 0.0400in | 0.0000in | 0.0000in |       0 )
( T05 | 1.500mm 0.0591in | 0.0000in | 0.0000in |       0 )
( T06 | 2.200mm 0.0866in | 0.0000in | 0.0000in |       0 )
( T07 | 2.500mm 0.0984in | 0.0000in | 0.0000in |       0 )
(Metric Mode)
G21
(Absolute Coordinates)
G90
M05
G00 Z25.4000 
G00 X12.7000 Y15.2400 
M06 T01  ; 0.8000  
G01 Z0.0000  F1000  
M06 T01  ; 0.8000  
G00 Z15.0000 
M03
G04 P3.000000
G82 X-35.5600 Y38.1000 Z0.0000  F1000  R15.0000 P1.000000
G82 X-35.5600 Y45.7200 
G82 X-35.5600 Y57.1500 
G82 X-35.5600 Y64.7700 
G82 X-60.9600 Y6.3500  
G82 X-63.5000 Y44.4500 
G82 X-63.5000 Y54.6100 
G82 X-68.5800 Y44.4500 
G82 X-68.5800 Y57.1500 
G82 X-68.5800 Y6.3500  
G82 X-100.3300 Y33.0200 
G82 X-100.3300 Y35.5600 
G82 X-100.3300 Y30.4800 
G82 X-107.9500 Y33.0200 
G82 X-107.9500 Y35.5600 
G82 X-107.9500 Y30.4800 
G82 X-17.7800 Y45.7200 
G82 X-17.7800 Y64.7700 
G82 X-25.4000 Y45.7200 
G82 X-25.4000 Y64.7700 
M05
G00 Z25.4000 
M06 T02  ; 0.8128  
G01 Z0.0000  F1000  
M06 T02  ; 0.8128  
G00 Z15.0000 
M03
G04 P3.000000
G82 X-34.2900 Y50.8000 Z0.0000  F1000  R15.0000 P1.000000
G82 X-34.2900 Y53.3400 
G82 X-36.1950 Y52.0700 
G82 X-59.6900 Y13.9700 
G82 X-59.6900 Y24.1300 
G82 X-102.8700 Y38.1000 
G82 X-105.4100 Y38.1000 
G82 X-17.7800 Y16.5100 
G82 X-19.0500 Y14.6050 
G82 X-20.3200 Y16.5100 
G82 X-25.4000 Y53.3400 
G82 X-26.6700 Y51.4350 
G82 X-27.9400 Y53.3400 
M05
G00 Z25.4000 
M06 T03  ; 0.9906  
G01 Z0.0000  F1000  
M06 T03  ; 0.9906  
G00 Z15.0000 
M03
G04 P3.000000
G82 X-77.4700 Y46.9900 Z0.0000  F1000  R15.0000 P1.000000
G82 X-77.4700 Y54.6100 
G82 X-80.0100 Y46.9900 
G82 X-80.0100 Y54.6100 
G82 X-82.5500 Y46.9900 
G82 X-82.5500 Y54.6100 
G82 X-85.0900 Y46.9900 
G82 X-85.0900 Y54.6100 
G82 X-87.6300 Y46.9900 
G82 X-87.6300 Y54.6100 
G82 X-90.1700 Y46.9900 
G82 X-90.1700 Y54.6100 
G82 X-92.7100 Y46.9900 
G82 X-92.7100 Y54.6100 
G82 X-95.2500 Y46.9900 
G82 X-95.2500 Y54.6100 
G82 X-97.7900 Y46.9900 
G82 X-97.7900 Y54.6100 
G82 X-100.3300 Y46.9900 
G82 X-100.3300 Y54.6100 
G82 X-102.8700 Y46.9900 
G82 X-102.8700 Y54.6100 
G82 X-105.4100 Y46.9900 
G82 X-105.4100 Y54.6100 
G82 X-107.9500 Y46.9900 
G82 X-107.9500 Y54.6100 
G82 X-110.4900 Y46.9900 
G82 X-110.4900 Y54.6100 
M05
G00 Z25.4000 
M06 T04  ; 1.0160  
G01 Z0.0000  F1000  
M06 T04  ; 1.0160  
G00 Z15.0000 
M03
G04 P3.000000
G82 X-50.8000 Y31.7500 Z0.0000  F1000  R15.0000 P1.000000
G82 X-50.8000 Y71.1200 
G82 X-53.3400 Y31.7500 
G82 X-53.3400 Y71.1200 
G82 X-55.8800 Y31.7500 
G82 X-55.8800 Y71.1200 
G82 X-58.4200 Y31.7500 
G82 X-58.4200 Y71.1200 
G82 X-60.9600 Y31.7500 
G82 X-60.9600 Y71.1200 
G82 X-63.5000 Y31.7500 
G82 X-63.5000 Y71.1200 
G82 X-63.5000 Y22.8600 
G82 X-66.0400 Y31.7500 
G82 X-66.0400 Y71.1200 
G82 X-66.0400 Y22.8600 
G82 X-68.5800 Y31.7500 
G82 X-68.5800 Y71.1200 
G82 X-68.5800 Y22.8600 
G82 X-71.1200 Y22.8600 
G82 X-73.6600 Y22.8600 
G82 X-76.2000 Y22.8600 
G82 X-97.7900 Y10.1600 
G82 X-100.3300 Y10.1600 
G82 X-102.8700 Y10.1600 
G82 X-105.4100 Y10.1600 
G82 X-107.9500 Y10.1600 
G82 X-110.4900 Y10.1600 
G82 X-113.0300 Y10.1600 
M05
G00 Z25.4000 
M06 T05  ; 1.5000  
G01 Z0.0000  F1000  
M06 T05  ; 1.5000  
G00 Z15.0000 
M03
G04 P3.000000
G82 X-8.8900 Y36.8300 Z0.0000  F1000  R15.0000 P1.000000
G82 X-8.8900 Y41.9100 
G82 X-8.8900 Y46.9900 
G82 X-8.8900 Y52.0700 
G82 X-8.8900 Y63.5000 
G82 X-8.8900 Y68.5800 
G82 X-8.8900 Y10.1600 
G82 X-8.8900 Y15.2400 
G82 X-8.8900 Y22.8600 
G82 X-8.8900 Y27.9400 
M05
G00 Z25.4000 
M06 T06  ; 2.2000  
G01 Z0.0000  F1000  
M06 T06  ; 2.2000  
G00 Z15.0000 
M03
G04 P3.000000
G82 X-39.8000 Y31.7500 Z0.0000  F1000  R15.0000 P1.000000
G82 X-39.8000 Y71.1200 
G82 X-79.6000 Y31.7500 
G82 X-79.6000 Y71.1200 
M05
G00 Z25.4000 
M06 T07  ; 2.5000  
G01 Z0.0000  F1000  
M06 T07  ; 2.5000  
G00 Z15.0000 
M03
G04 P3.000000
G82 X-87.4100 Y69.9100 Z0.0000  F1000  R15.0000 P1.000000
G82 X-87.4100 Y8.9100  
G82 X-123.4100 Y69.9100 
G82 X-123.4100 Y8.9100  
T01 
G00 Z25.0000 
M05
M02
